;FLAVOR:Marlin
;TIME:1779
;Filament used: 0.969708m
;Layer height: 0.2
;MINX:9.329
;MINY:27.678
;MINZ:0.2
;MAXX:203.397
;MAXY:192.668
;MAXZ:0.2
;TARGET_MACHINE.NAME:Creality Ender-3 S1
;Generated with Cura_SteamEngine 5.5.0
M140 S80
M105
M190 S80
M104 S235
M105
M109 S235
M82 ;absolute extrusion mode
START_PRINT
G92 E0
G92 E0
G1 F2400 E-1
;LAYER_COUNT:1
;LAYER:0
M107
M204 S2000
G0 F6000 X18.874 Y30.951 Z0.2
M204 S500
;TYPE:SKIRT
G1 F2400 E0
G1 F900 X19.363 Y30.651 E0.0229
G1 X20.275 Y30.128 E0.06486
G1 X20.838 Y29.842 E0.09006
G1 X21.542 Y29.506 E0.1212
G1 X22.191 Y29.228 E0.14938
G1 X23.116 Y28.873 E0.18892
G1 X23.474 Y28.75 E0.20403
G1 X24.48 Y28.441 E0.24603
G1 X24.813 Y28.35 E0.25981
G1 X25.559 Y28.172 E0.29042
G1 X26.604 Y27.964 E0.33295
G1 X27.171 Y27.879 E0.35583
G1 X28.221 Y27.756 E0.39802
G1 X28.827 Y27.714 E0.42227
G1 X29.717 Y27.678 E0.45782
G1 X30.275 Y27.678 E0.48009
G1 X31.162 Y27.705 E0.51551
G1 X32.116 Y27.78 E0.5537
G1 X33.066 Y27.894 E0.59189
G1 X33.794 Y28.019 E0.62137
G1 X34.698 Y28.202 E0.65818
G1 X35.249 Y28.338 E0.68084
G1 X36.26 Y28.627 E0.7228
G1 X39.144 Y29.59 E0.84416
G1 X41.709 Y30.373 E0.9512
G1 X44.307 Y31.087 E1.05873
G1 X46.861 Y31.71 E1.16366
G1 X49.436 Y32.264 E1.26878
G1 X52.078 Y32.754 E1.37603
G1 X54.647 Y33.155 E1.4798
G1 X57.285 Y33.491 E1.58594
G1 X59.972 Y33.757 E1.69371
G1 X62.589 Y33.94 E1.79842
G1 X65.23 Y34.052 E1.90392
G1 X67.927 Y34.088 E2.01157
G1 X70.53 Y34.049 E2.11547
G1 X73.201 Y33.935 E2.22218
G1 X75.834 Y33.747 E2.32753
G1 X78.518 Y33.478 E2.43519
G1 X81.114 Y33.146 E2.53965
G1 X83.724 Y32.734 E2.64511
G1 X86.338 Y32.248 E2.75123
G1 X88.914 Y31.693 E2.8564
G1 X91.498 Y31.057 E2.96261
G1 X94.078 Y30.345 E3.06944
G1 X97.89 Y29.147 E3.22892
G1 X98.798 Y28.841 E3.26716
G1 X99.64 Y28.59 E3.30223
G1 X100.483 Y28.369 E3.33701
G1 X101.352 Y28.178 E3.37252
G1 X102.29 Y28.007 E3.41058
G1 X103.315 Y27.862 E3.45189
G1 X104.282 Y27.762 E3.4907
G1 X105.075 Y27.709 E3.52242
G1 X106.05 Y27.679 E3.56135
G1 X106.895 Y27.682 E3.59507
G1 X107.888 Y27.722 E3.63474
G1 X108.667 Y27.782 E3.66592
G1 X109.636 Y27.889 E3.70483
G1 X110.287 Y27.983 E3.73109
G1 X111.416 Y28.186 E3.77687
G1 X112.026 Y28.318 E3.80178
G1 X112.953 Y28.553 E3.83995
G1 X113.748 Y28.785 E3.873
G1 X114.779 Y29.128 E3.91637
G1 X117.339 Y29.955 E4.02374
G1 X119.884 Y30.7 E4.12958
G1 X122.428 Y31.362 E4.2345
G1 X125.046 Y31.967 E4.34174
G1 X127.657 Y32.493 E4.44805
G1 X130.281 Y32.946 E4.55433
G1 X132.864 Y33.316 E4.65847
G1 X135.518 Y33.62 E4.76509
G1 X138.177 Y33.85 E4.87161
G1 X140.775 Y34 E4.97548
G1 X143.481 Y34.079 E5.08353
G1 X146.098 Y34.081 E5.18798
G1 X148.772 Y34.008 E5.29474
G1 X151.406 Y33.862 E5.40003
G1 X154.062 Y33.639 E5.50641
G1 X156.716 Y33.34 E5.61301
G1 X159.276 Y32.979 E5.71619
G1 X161.919 Y32.528 E5.82321
G1 X164.553 Y32.002 E5.93041
G1 X167.091 Y31.422 E6.03432
G1 X169.71 Y30.742 E6.14232
G1 X172.232 Y30.013 E6.2471
G1 X174.825 Y29.181 E6.35578
G1 X176.64 Y28.573 E6.43218
G1 X177.335 Y28.377 E6.461
G1 X178.303 Y28.141 E6.50077
G1 X179.004 Y28.005 E6.52927
G1 X180.04 Y27.843 E6.57112
G1 X180.639 Y27.777 E6.59517
G1 X181.598 Y27.703 E6.63356
G1 X182.286 Y27.681 E6.66104
G1 X183.257 Y27.685 E6.69979
G1 X183.959 Y27.718 E6.72784
G1 X184.9 Y27.796 E6.76553
G1 X185.689 Y27.9 E6.79729
G1 X186.479 Y28.029 E6.82924
G1 X186.866 Y28.107 E6.84499
G1 X187.974 Y28.368 E6.89043
G1 X188.785 Y28.601 E6.92411
G1 X189.8 Y28.94 E6.96682
G1 X190.348 Y29.153 E6.99028
G1 X191.445 Y29.624 E7.03793
G1 X191.932 Y29.864 E7.0596
G1 X192.885 Y30.367 E7.10261
G1 X193.433 Y30.692 E7.12804
G1 X194.181 Y31.165 E7.16336
G1 X194.807 Y31.604 E7.19388
G1 X195.465 Y32.097 E7.22669
G1 X196.162 Y32.671 E7.26273
G1 X196.934 Y33.363 E7.30411
G1 X197.366 Y33.789 E7.32833
G1 X198.094 Y34.556 E7.37053
G1 X198.473 Y34.995 E7.39368
G1 X199.136 Y35.815 E7.43577
G1 X199.52 Y36.34 E7.46173
G1 X200.119 Y37.219 E7.50418
G1 X200.427 Y37.717 E7.52755
G1 X200.939 Y38.614 E7.56878
G1 X201.227 Y39.177 E7.59402
G1 X201.62 Y40.009 E7.63074
G1 X201.905 Y40.695 E7.66039
G1 X202.279 Y41.694 E7.70296
G1 X202.461 Y42.265 E7.72688
G1 X202.684 Y43.02 E7.7583
G1 X202.781 Y43.396 E7.7738
G1 X203.012 Y44.439 E7.81644
G1 X203.171 Y45.381 E7.85457
G1 X203.272 Y46.167 E7.8862
G1 X203.354 Y47.142 E7.92525
G1 X203.392 Y48.102 E7.96359
G1 X203.389 Y48.801 E7.99149
G1 X203.352 Y49.727 E8.02848
G1 X203.279 Y50.549 E8.06142
G1 X203.148 Y51.586 E8.10314
G1 X203.05 Y52.146 E8.12583
G1 X202.832 Y53.203 E8.1689
G1 X202.14 Y55.963 E8.28247
G1 X201.563 Y58.558 E8.38857
G1 X201.071 Y61.111 E8.49234
G1 X200.638 Y63.753 E8.5992
G1 X200.287 Y66.364 E8.70434
G1 X200.006 Y69.018 E8.81086
G1 X199.799 Y71.648 E8.91616
G1 X199.67 Y74.298 E9.02205
G1 X199.615 Y76.969 E9.12868
G1 X199.634 Y79.589 E9.23325
G1 X199.73 Y82.281 E9.34076
G1 X199.896 Y84.873 E9.44443
G1 X200.144 Y87.546 E9.55157
G1 X200.462 Y90.178 E9.65738
G1 X200.856 Y92.809 E9.76356
G1 X201.323 Y95.416 E9.86927
G1 X201.865 Y98.026 E9.97566
G1 X202.422 Y100.486 E10.07633
G1 X202.645 Y101.627 E10.12273
G1 X202.83 Y102.717 E10.16686
G1 X202.997 Y103.871 E10.2134
G1 X203.132 Y105.02 E10.25957
G1 X203.238 Y106.147 E10.30475
G1 X203.319 Y107.34 E10.35248
G1 X203.372 Y108.462 E10.39731
G1 X203.397 Y109.53 E10.43995
G1 X203.397 Y110.813 E10.49115
G1 X203.37 Y111.893 E10.53427
G1 X203.311 Y113.179 E10.58565
G1 X203.227 Y114.343 E10.63223
G1 X203.119 Y115.455 E10.67682
G1 X202.978 Y116.612 E10.72334
G1 X202.807 Y117.771 E10.7701
G1 X202.64 Y118.754 E10.8099
G1 X202.386 Y120.031 E10.86186
G1 X201.617 Y123.464 E11.00228
G1 X201.107 Y126.08 E11.10865
G1 X200.675 Y128.681 E11.21389
G1 X200.311 Y131.331 E11.32065
G1 X200.026 Y133.955 E11.42599
G1 X199.813 Y136.601 E11.53194
G1 X199.68 Y139.213 E11.63633
G1 X199.616 Y141.922 E11.74448
G1 X199.63 Y144.541 E11.84901
G1 X199.719 Y147.213 E11.95572
G1 X199.879 Y149.823 E12.06008
G1 X200.118 Y152.469 E12.16612
G1 X200.431 Y155.121 E12.2727
G1 X200.82 Y157.755 E12.37897
G1 X201.278 Y160.353 E12.48426
G1 X201.81 Y162.944 E12.58983
G1 X202.419 Y165.533 E12.69598
G1 X202.88 Y167.359 E12.77115
G1 X202.951 Y167.672 E12.78396
G1 X203.062 Y168.255 E12.80765
G1 X203.231 Y169.351 E12.85191
G1 X203.296 Y169.953 E12.87607
G1 X203.372 Y170.975 E12.91698
G1 X203.389 Y171.587 E12.94141
G1 X203.384 Y172.54 E12.97945
G1 X203.348 Y173.261 E13.00826
G1 X203.273 Y174.182 E13.04514
G1 X203.178 Y174.901 E13.07409
G1 X203.002 Y175.955 E13.11674
G1 X202.873 Y176.556 E13.14127
G1 X202.644 Y177.463 E13.17861
G1 X202.43 Y178.179 E13.20843
G1 X202.083 Y179.199 E13.25144
G1 X201.865 Y179.753 E13.2752
G1 X201.548 Y180.496 E13.30744
G1 X201.395 Y180.822 E13.32181
G1 X200.919 Y181.764 E13.36394
G1 X200.757 Y182.063 E13.37751
G1 X200.379 Y182.703 E13.40718
G1 X199.95 Y183.385 E13.43933
G1 X199.741 Y183.694 E13.45422
G1 X199.14 Y184.523 E13.49509
G1 X198.946 Y184.774 E13.50775
G1 X198.439 Y185.387 E13.5395
G1 X197.816 Y186.088 E13.57693
G1 X197.293 Y186.626 E13.60688
G1 X196.537 Y187.347 E13.64858
G1 X196.061 Y187.757 E13.67365
G1 X195.233 Y188.426 E13.71614
G1 X194.773 Y188.765 E13.73894
G1 X193.889 Y189.37 E13.7817
G1 X193.32 Y189.72 E13.80836
G1 X192.434 Y190.225 E13.84906
G1 X191.866 Y190.512 E13.87446
G1 X190.94 Y190.947 E13.91529
G1 X190.52 Y191.122 E13.93345
G1 X189.499 Y191.511 E13.97706
G1 X188.816 Y191.733 E14.00573
G1 X187.864 Y192.008 E14.04528
G1 X187.225 Y192.161 E14.0715
G1 X186.613 Y192.291 E14.09647
G1 X185.722 Y192.439 E14.13252
G1 X184.651 Y192.573 E14.1756
G1 X183.903 Y192.629 E14.20554
G1 X182.815 Y192.668 E14.24899
G1 X182.201 Y192.661 E14.2735
G1 X181.434 Y192.631 E14.30413
G1 X180.582 Y192.559 E14.33826
G1 X179.508 Y192.425 E14.38146
G1 X178.878 Y192.315 E14.40698
G1 X177.872 Y192.106 E14.44799
G1 X177.289 Y191.954 E14.47204
G1 X176.301 Y191.665 E14.51313
G1 X173.212 Y190.637 E14.64306
G1 X170.598 Y189.85 E14.75202
G1 X168.099 Y189.175 E14.85533
G1 X165.491 Y188.548 E14.96239
G1 X162.882 Y188 E15.06879
G1 X160.288 Y187.53 E15.17401
G1 X157.687 Y187.133 E15.27902
G1 X155.05 Y186.809 E15.38506
G1 X152.388 Y186.556 E15.49179
G1 X149.737 Y186.382 E15.59782
G1 X147.099 Y186.282 E15.70319
G1 X144.436 Y186.257 E15.80948
G1 X141.772 Y186.307 E15.91582
G1 X139.16 Y186.43 E16.02019
G1 X136.482 Y186.631 E16.12737
G1 X133.886 Y186.903 E16.23155
G1 X131.229 Y187.255 E16.33853
G1 X128.601 Y187.681 E16.44479
G1 X125.983 Y188.18 E16.55116
G1 X123.454 Y188.735 E16.6545
G1 X120.824 Y189.393 E16.7627
G1 X118.31 Y190.099 E16.86692
G1 X114.859 Y191.19 E17.01138
G1 X113.945 Y191.497 E17.04986
G1 X113.142 Y191.738 E17.08332
G1 X112.195 Y191.985 E17.12238
G1 X111.356 Y192.17 E17.15667
G1 X110.507 Y192.326 E17.19113
G1 X109.582 Y192.46 E17.22843
G1 X108.48 Y192.578 E17.27267
G1 X107.597 Y192.637 E17.30799
G1 X106.689 Y192.664 E17.34424
G1 X105.803 Y192.661 E17.37961
G1 X105.095 Y192.635 E17.40788
G1 X104.02 Y192.558 E17.4509
G1 X103.111 Y192.456 E17.48741
G1 X102.386 Y192.352 E17.51664
G1 X101.373 Y192.17 E17.55772
G1 X100.444 Y191.966 E17.59568
G1 X99.795 Y191.797 E17.62244
G1 X98.743 Y191.485 E17.66624
G1 X97.821 Y191.174 E17.70508
G1 X95.29 Y190.36 E17.81119
G1 X92.735 Y189.619 E17.91737
G1 X90.17 Y188.952 E18.02315
G1 X87.553 Y188.351 E18.13032
G1 X84.971 Y187.833 E18.23542
G1 X82.371 Y187.388 E18.3407
G1 X79.754 Y187.015 E18.44621
G1 X77.065 Y186.71 E18.55422
G1 X74.481 Y186.491 E18.65772
G1 X71.813 Y186.34 E18.76438
G1 X69.146 Y186.265 E18.87087
G1 X66.527 Y186.265 E18.9754
G1 X63.851 Y186.342 E19.08225
G1 X61.188 Y186.493 E19.1887
G1 X58.566 Y186.715 E19.29373
G1 X55.938 Y187.015 E19.3993
G1 X53.305 Y187.39 E19.50545
G1 X50.689 Y187.839 E19.61138
G1 X48.066 Y188.365 E19.71816
G1 X45.485 Y188.958 E19.82386
G1 X42.951 Y189.619 E19.92838
G1 X40.389 Y190.364 E20.03487
G1 X37.844 Y191.183 E20.14157
G1 X36.205 Y191.735 E20.2106
G1 X35.31 Y191.989 E20.24773
G1 X34.348 Y192.22 E20.28722
G1 X33.734 Y192.337 E20.31217
G1 X32.672 Y192.502 E20.35506
G1 X32.031 Y192.571 E20.38079
G1 X31.233 Y192.634 E20.41274
G1 X30.843 Y192.652 E20.42832
G1 X29.778 Y192.666 E20.47083
G1 X29.434 Y192.658 E20.48457
G1 X28.738 Y192.623 E20.51238
G1 X27.812 Y192.546 E20.54947
G1 X27.099 Y192.452 E20.57817
G1 X26.045 Y192.276 E20.62082
G1 X25.445 Y192.147 E20.64532
G1 X24.532 Y191.917 E20.68289
G1 X23.824 Y191.706 E20.71238
G1 X22.846 Y191.374 E20.7536
G1 X22.188 Y191.114 E20.78184
G1 X21.287 Y190.722 E20.82106
G1 X20.742 Y190.455 E20.84528
G1 X19.805 Y189.956 E20.88765
G1 X19.314 Y189.663 E20.91047
G1 X18.488 Y189.139 E20.94951
G1 X18.024 Y188.814 E20.97212
G1 X17.178 Y188.18 E21.01432
G1 X16.579 Y187.684 E21.04536
G1 X15.801 Y186.987 E21.08705
G1 X15.466 Y186.66 E21.10573
G1 X14.639 Y185.795 E21.1535
G1 X14.252 Y185.347 E21.17712
G1 X13.587 Y184.526 E21.21929
G1 X13.209 Y184.008 E21.24489
G1 X12.766 Y183.368 E21.27595
G1 X12.295 Y182.618 E21.3113
G1 X11.843 Y181.831 E21.34752
G1 X11.516 Y181.2 E21.37589
G1 X11.105 Y180.331 E21.41426
G1 X10.821 Y179.649 E21.44374
G1 X10.441 Y178.631 E21.48711
G1 X10.257 Y178.057 E21.51117
G1 X9.972 Y177.052 E21.55286
G1 X9.837 Y176.478 E21.5764
G1 X9.647 Y175.54 E21.61459
G1 X9.528 Y174.771 E21.64565
G1 X9.414 Y173.786 E21.68523
G1 X9.37 Y173.153 E21.71055
G1 X9.335 Y172.24 E21.74702
G1 X9.339 Y171.521 E21.77572
G1 X9.371 Y170.686 E21.80907
G1 X9.4 Y170.303 E21.8244
G1 X9.513 Y169.218 E21.86794
G1 X9.56 Y168.88 E21.88156
G1 X9.676 Y168.198 E21.90917
G1 X9.87 Y167.252 E21.94771
G1 X10.54 Y164.589 E22.05731
G1 X11.129 Y161.958 E22.16492
G1 X11.619 Y159.434 E22.26754
G1 X12.066 Y156.736 E22.37669
G1 X12.42 Y154.154 E22.48071
G1 X12.708 Y151.481 E22.58801
G1 X12.917 Y148.86 E22.69295
G1 X13.049 Y146.251 E22.79721
G1 X13.111 Y143.542 E22.90536
G1 X13.096 Y140.898 E23.01089
G1 X13.005 Y138.247 E23.11676
G1 X12.841 Y135.58 E23.22341
G1 X12.605 Y133.001 E23.32677
G1 X12.288 Y130.342 E23.43365
G1 X11.895 Y127.688 E23.54073
G1 X11.432 Y125.079 E23.64649
G1 X10.895 Y122.47 E23.7528
G1 X10.295 Y119.817 E23.86137
G1 X10.085 Y118.739 E23.9052
G1 X9.897 Y117.624 E23.95033
G1 X9.724 Y116.429 E23.99852
G1 X9.601 Y115.379 E24.04072
G1 X9.482 Y114.115 E24.09139
G1 X9.41 Y113.051 E24.13395
G1 X9.354 Y111.871 E24.1811
G1 X9.329 Y110.819 E24.2231
G1 X9.329 Y109.524 E24.27479
G1 X9.356 Y108.441 E24.31803
G1 X9.416 Y107.164 E24.36905
G1 X9.495 Y106.074 E24.41267
G1 X9.616 Y104.827 E24.46267
G1 X9.752 Y103.71 E24.50758
G1 X9.92 Y102.57 E24.55358
G1 X10.108 Y101.478 E24.5978
G1 X10.311 Y100.456 E24.63939
G1 X11.09 Y96.973 E24.78184
G1 X11.61 Y94.318 E24.88982
G1 X12.037 Y91.763 E24.99321
G1 X12.406 Y89.092 E25.10082
G1 X12.695 Y86.453 E25.20678
G1 X12.907 Y83.823 E25.31209
G1 X13.046 Y81.165 E25.41832
G1 X13.11 Y78.531 E25.52348
G1 X13.098 Y75.848 E25.63057
G1 X13.012 Y73.207 E25.73603
G1 X12.851 Y70.558 E25.84195
G1 X12.619 Y67.954 E25.9463
G1 X12.305 Y65.292 E26.05328
G1 X11.917 Y62.646 E26.16002
G1 X11.462 Y60.057 E26.26493
G1 X10.93 Y57.452 E26.37105
G1 X10.315 Y54.838 E26.47823
G1 X9.848 Y52.992 E26.55423
G1 X9.687 Y52.207 E26.58621
G1 X9.498 Y51.016 E26.63434
G1 X9.431 Y50.402 E26.65899
G1 X9.36 Y49.478 E26.69598
G1 X9.341 Y48.91 E26.71866
G1 X9.335 Y48.052 E26.75291
G1 X9.364 Y47.266 E26.7843
G1 X9.445 Y46.239 E26.82542
G1 X9.551 Y45.422 E26.8583
G1 X9.727 Y44.373 E26.90075
G1 X9.859 Y43.776 E26.92516
G1 X10.124 Y42.726 E26.96838
G1 X10.292 Y42.174 E26.99141
G1 X10.596 Y41.27 E27.02947
G1 X10.808 Y40.726 E27.05278
G1 X11.178 Y39.852 E27.09066
G1 X11.518 Y39.139 E27.12218
G1 X12.018 Y38.193 E27.16489
G1 X12.289 Y37.737 E27.18606
G1 X12.925 Y36.737 E27.23336
G1 X13.307 Y36.199 E27.2597
G1 X13.953 Y35.354 E27.30215
G1 X14.31 Y34.93 E27.32427
G1 X15.02 Y34.136 E27.36678
G1 X15.438 Y33.712 E27.39055
G1 X16.117 Y33.064 E27.42801
G1 X16.657 Y32.594 E27.45658
G1 X17.478 Y31.93 E27.49872
G1 X17.865 Y31.645 E27.51791
G1 X18.325 Y31.328 E27.5402
G0 F810 X18.874 Y30.951
M204 S2000
G0 F6000 X19.125 Y31.36
M204 S500
G1 F900 X19.602 Y31.067 E27.56255
G1 X20.492 Y30.556 E27.60351
G1 X21.045 Y30.275 E27.62826
G1 X21.731 Y29.947 E27.65861
G1 X22.363 Y29.676 E27.68606
G1 X23.272 Y29.327 E27.72492
G1 X23.615 Y29.209 E27.7394
G1 X24.607 Y28.904 E27.78082
G1 X24.924 Y28.817 E27.79394
G1 X25.653 Y28.643 E27.82385
G1 X26.675 Y28.439 E27.86545
G1 X27.227 Y28.356 E27.88773
G1 X28.254 Y28.235 E27.929
G1 X28.846 Y28.194 E27.95269
G1 X29.736 Y28.158 E27.98824
G1 X30.261 Y28.158 E28.00919
G1 X31.125 Y28.184 E28.04369
G1 X32.059 Y28.257 E28.08108
G1 X33.009 Y28.371 E28.11927
G1 X33.699 Y28.489 E28.14721
G1 X34.583 Y28.668 E28.18321
G1 X35.117 Y28.8 E28.20516
G1 X36.128 Y29.089 E28.24713
G1 X39.004 Y30.049 E28.36814
G1 X41.582 Y30.836 E28.47572
G1 X44.18 Y31.55 E28.58326
G1 X46.754 Y32.178 E28.68901
G1 X49.348 Y32.736 E28.79491
G1 X51.99 Y33.226 E28.90216
G1 X54.586 Y33.631 E29.00702
G1 X57.238 Y33.969 E29.11372
G1 X59.928 Y34.235 E29.22161
G1 X62.569 Y34.42 E29.32728
G1 X65.21 Y34.532 E29.43278
G1 X67.928 Y34.568 E29.54127
G1 X70.55 Y34.529 E29.64593
G1 X73.221 Y34.415 E29.75263
G1 X75.882 Y34.225 E29.85911
G1 X78.566 Y33.956 E29.96677
G1 X81.182 Y33.621 E30.07204
G1 X83.814 Y33.206 E30.17838
G1 X86.426 Y32.72 E30.28442
G1 X89.03 Y32.159 E30.39074
G1 X91.626 Y31.52 E30.49744
G1 X94.206 Y30.808 E30.60426
G1 X98.034 Y29.605 E30.76442
G1 X98.935 Y29.301 E30.80237
G1 X99.762 Y29.054 E30.83682
G1 X100.586 Y28.838 E30.87081
G1 X101.438 Y28.65 E30.90564
G1 X102.357 Y28.482 E30.94293
G1 X103.364 Y28.339 E30.98352
G1 X104.314 Y28.241 E31.02164
G1 X105.09 Y28.189 E31.05268
G1 X106.048 Y28.159 E31.09093
G1 X106.876 Y28.162 E31.12398
G1 X107.852 Y28.201 E31.16297
G1 X108.614 Y28.259 E31.19347
G1 X109.568 Y28.364 E31.23177
G1 X110.202 Y28.455 E31.25734
G1 X111.315 Y28.655 E31.30247
G1 X111.908 Y28.783 E31.32668
G1 X112.819 Y29.014 E31.36419
G1 X113.614 Y29.246 E31.39725
G1 X114.631 Y29.585 E31.44003
G1 X117.197 Y30.414 E31.54766
G1 X119.749 Y31.16 E31.65378
G1 X122.32 Y31.83 E31.75982
G1 X124.951 Y32.438 E31.8676
G1 X127.562 Y32.964 E31.9739
G1 X130.199 Y33.419 E32.08071
G1 X132.809 Y33.793 E32.18594
G1 X135.463 Y34.097 E32.29256
G1 X138.145 Y34.329 E32.4
G1 X140.761 Y34.48 E32.50459
G1 X143.467 Y34.559 E32.61264
G1 X146.111 Y34.561 E32.71816
