;FLAVOR:Marlin
;TIME:6144
;Filament used: 15.437m
;Layer height: 0.3
;MINX:74.163
;MINY:74.227
;MINZ:0.3
;MAXX:155.837
;MAXY:155.769
;MAXZ:50.1
;TARGET_MACHINE.NAME:Creality Ender-3 S1
;Generated with Cura_SteamEngine 5.5.0
M140 S70
M105
M190 S70
M104 S215
M105
M109 S215
M82 ;absolute extrusion mode
START_PRINT
G92 E0
G92 E0
G1 F2400 E-0.8
;LAYER_COUNT:167
;LAYER:0
M107
G0 F6000 X78.402 Y77.454 Z0.3
;TYPE:SKIRT
G1 F2400 E0
G1 F900 X80.592 Y75.871 E0.13481
G1 X83.065 Y74.782 E0.26963
G1 X85.646 Y74.231 E0.40129
G1 X88.338 Y74.227 E0.5356
G1 X90.869 Y74.754 E0.66458
G1 X93.402 Y75.869 E0.80265
G1 X95.231 Y77.2 E0.91551
G1 X134.769 Y77.2 E2.88806
G1 X136.598 Y75.869 E3.00092
G1 X139.064 Y74.783 E3.13535
G1 X141.649 Y74.231 E3.26722
G1 X144.351 Y74.231 E3.40203
G1 X146.936 Y74.783 E3.5339
G1 X149.417 Y75.874 E3.66912
G1 X151.588 Y77.451 E3.80299
G1 X153.351 Y79.406 E3.93432
G1 X154.754 Y81.834 E4.07423
G1 X155.576 Y84.369 E4.20718
G1 X155.837 Y87.048 E4.34147
G1 X155.576 Y89.64 E4.47144
G1 X154.704 Y92.286 E4.61043
G1 X153.381 Y94.554 E4.74143
G1 X152.8 Y95.2 E4.78477
G1 X152.8 Y134.793 E6.76008
G1 X153.351 Y135.406 E6.8012
G1 X154.754 Y137.834 E6.9411
G1 X155.576 Y140.369 E7.07406
G1 X155.837 Y143.048 E7.20834
G1 X155.576 Y145.64 E7.33831
G1 X154.707 Y148.281 E7.47702
G1 X153.373 Y150.568 E7.60911
G1 X151.616 Y152.523 E7.74025
G1 X149.409 Y154.128 E7.8764
G1 X146.936 Y155.217 E8.01121
G1 X144.351 Y155.769 E8.14308
G1 X141.649 Y155.769 E8.27788
G1 X139.064 Y155.217 E8.40976
G1 X136.6 Y154.131 E8.5441
G1 X134.771 Y152.8 E8.65695
G1 X95.229 Y152.8 E10.62971
G1 X93.4 Y154.131 E10.74256
G1 X90.936 Y155.217 E10.8769
G1 X88.351 Y155.769 E11.00878
G1 X85.649 Y155.769 E11.14358
G1 X83.064 Y155.217 E11.27545
G1 X80.582 Y154.125 E11.41074
G1 X78.412 Y152.549 E11.54454
G1 X76.628 Y150.573 E11.67735
G1 X75.247 Y148.181 E11.81515
G1 X74.424 Y145.642 E11.94831
G1 X74.163 Y142.952 E12.08315
G1 X74.424 Y140.359 E12.21317
G1 X75.291 Y137.725 E12.35151
G1 X76.622 Y135.439 E12.48349
G1 X77.2 Y134.803 E12.52636
G1 X77.2 Y95.208 E14.50176
G1 X76.628 Y94.573 E14.5444
G1 X75.247 Y92.181 E14.6822
G1 X74.424 Y89.642 E14.81536
G1 X74.163 Y86.952 E14.95019
G1 X74.424 Y84.359 E15.08021
G1 X75.291 Y81.725 E15.21856
G1 X76.62 Y79.441 E15.3504
G1 X78.402 Y77.454 E15.48355
G0 F6000 X78.673 Y77.752
G1 F900 X80.791 Y76.22 E15.61397
G1 X83.189 Y75.164 E15.74469
G1 X85.687 Y74.631 E15.87212
G1 X88.295 Y74.627 E16.00223
G1 X90.749 Y75.138 E16.12729
G1 X93.203 Y76.218 E16.26105
G1 X95.102 Y77.6 E16.37823
G1 X134.898 Y77.6 E18.36366
G1 X136.797 Y76.218 E18.48083
G1 X139.188 Y75.165 E18.61118
G1 X141.69 Y74.631 E18.73881
G1 X144.31 Y74.631 E18.86953
G1 X146.812 Y75.165 E18.99716
G1 X149.215 Y76.222 E19.12813
G1 X151.32 Y77.751 E19.25793
G1 X153.027 Y79.644 E19.3851
G1 X154.387 Y81.998 E19.52074
G1 X155.182 Y84.449 E19.64929
G1 X155.435 Y87.047 E19.77952
G1 X155.182 Y89.556 E19.90532
G1 X154.338 Y92.118 E20.0399
G1 X153.054 Y94.319 E20.16703
G1 X152.4 Y95.046 E20.21581
G1 X152.4 Y134.947 E22.20648
G1 X153.027 Y135.644 E22.25326
G1 X154.387 Y137.998 E22.38889
G1 X155.182 Y140.449 E22.51744
G1 X155.435 Y143.047 E22.64767
G1 X155.182 Y145.556 E22.77348
G1 X154.341 Y148.113 E22.90777
G1 X153.046 Y150.333 E23.03599
G1 X151.344 Y152.227 E23.16303
G1 X149.21 Y153.779 E23.29468
G1 X146.812 Y154.835 E23.4254
G1 X144.31 Y155.369 E23.55304
G1 X141.69 Y155.369 E23.68375
G1 X139.188 Y154.835 E23.81139
G1 X136.799 Y153.782 E23.94164
G1 X134.9 Y152.4 E24.05881
G1 X95.1 Y152.4 E26.04444
G1 X93.201 Y153.782 E26.16162
G1 X90.812 Y154.835 E26.29187
G1 X88.31 Y155.369 E26.41951
G1 X85.69 Y155.369 E26.55022
G1 X83.188 Y154.835 E26.67785
G1 X80.784 Y153.777 E26.80889
G1 X78.68 Y152.249 E26.93862
G1 X76.952 Y150.335 E27.06727
G1 X75.614 Y148.017 E27.2008
G1 X74.818 Y145.562 E27.32956
G1 X74.565 Y142.953 E27.46033
G1 X74.818 Y140.443 E27.58619
G1 X75.658 Y137.89 E27.72028
G1 X76.947 Y135.676 E27.84809
G1 X77.6 Y134.957 E27.89655
G1 X77.6 Y95.054 E29.88732
G1 X76.952 Y94.335 E29.93561
G1 X75.614 Y92.017 E30.06913
G1 X74.818 Y89.562 E30.19789
G1 X74.565 Y86.953 E30.32867
G1 X74.818 Y84.443 E30.45453
G1 X75.658 Y81.89 E30.58861
G1 X76.945 Y79.678 E30.71629
G1 X78.673 Y77.752 E30.84538
G0 F6000 X78.944 Y78.049
G1 F900 X77.27 Y79.915 E30.97045
G1 X76.025 Y82.055 E31.09397
G1 X75.212 Y84.527 E31.2238
G1 X74.967 Y86.954 E31.34549
G1 X75.212 Y89.482 E31.47221
G1 X75.981 Y91.853 E31.59656
G1 X77.276 Y94.097 E31.72582
G1 X78 Y94.9 E31.77976
G1 X78 Y135.111 E33.7859
G1 X77.272 Y135.913 E33.83994
G1 X76.025 Y138.055 E33.96359
G1 X75.212 Y140.527 E34.09342
G1 X74.967 Y142.954 E34.21512
G1 X75.212 Y145.482 E34.34183
G1 X75.981 Y147.853 E34.46619
G1 X77.276 Y150.097 E34.59545
G1 X78.948 Y151.949 E34.71993
G1 X80.986 Y153.429 E34.84558
G1 X83.311 Y154.452 E34.97231
G1 X85.732 Y154.969 E35.09582
G1 X88.268 Y154.969 E35.22234
G1 X90.689 Y154.452 E35.34585
G1 X93.002 Y153.433 E35.47195
G1 X94.971 Y152 E35.59344
G1 X135.029 Y152 E37.59194
G1 X136.998 Y153.433 E37.71344
G1 X139.311 Y154.452 E37.83954
G1 X141.732 Y154.969 E37.96304
G1 X144.268 Y154.969 E38.08956
G1 X146.689 Y154.452 E38.21307
G1 X149.011 Y153.43 E38.33964
G1 X151.072 Y151.931 E38.46679
G1 X152.722 Y150.095 E38.58994
G1 X153.974 Y147.949 E38.71389
G1 X154.788 Y145.472 E38.84397
G1 X155.033 Y143.046 E38.96562
G1 X154.788 Y140.533 E39.09159
G1 X154.018 Y138.158 E39.21615
G1 X152.703 Y135.882 E39.34729
G1 X152 Y135.101 E39.39971
G1 X152 Y94.892 E41.40575
G1 X152.729 Y94.082 E41.46012
G1 X153.971 Y91.952 E41.58313
G1 X154.788 Y89.472 E41.7134
G1 X155.033 Y87.046 E41.83505
G1 X154.788 Y84.533 E41.96102
G1 X154.018 Y82.158 E42.08558
G1 X152.703 Y79.882 E42.21672
G1 X151.052 Y78.051 E42.33972
G1 X149.013 Y76.57 E42.46545
G1 X146.689 Y75.548 E42.59211
G1 X144.268 Y75.031 E42.71561
G1 X141.732 Y75.031 E42.84214
G1 X139.311 Y75.548 E42.96564
G1 X136.996 Y76.567 E43.09183
G1 X135.027 Y78 E43.21333
G1 X94.973 Y78 E45.21163
G1 X93.004 Y76.567 E45.33313
G1 X90.629 Y75.522 E45.46258
G1 X88.252 Y75.027 E45.58371
G1 X85.729 Y75.031 E45.70958
G1 X83.312 Y75.547 E45.83289
G1 X80.99 Y76.569 E45.95946
G1 X78.944 Y78.049 E46.08544
G0 F6000 X79.215 Y78.346
G1 F900 X81.189 Y76.918 E46.20699
G1 X83.436 Y75.929 E46.32947
G1 X85.77 Y75.431 E46.44853
G1 X88.209 Y75.427 E46.57022
G1 X90.509 Y75.906 E46.68743
G1 X92.802 Y76.915 E46.81241
G1 X94.723 Y78.312 E46.93091
G1 X94.816 Y78.4 E46.9373
G1 X135.184 Y78.4 E48.95127
G1 X135.277 Y78.312 E48.95765
G1 X137.198 Y76.915 E49.07616
G1 X139.435 Y75.93 E49.1981
G1 X141.773 Y75.431 E49.31737
G1 X144.227 Y75.431 E49.4398
G1 X146.565 Y75.93 E49.55907
G1 X148.811 Y76.918 E49.68149
G1 X150.784 Y78.351 E49.80315
G1 X152.379 Y80.12 E49.92198
G1 X153.651 Y82.322 E50.04885
G1 X154.394 Y84.613 E50.16901
G1 X154.631 Y87.045 E50.29091
G1 X154.394 Y89.388 E50.4084
G1 X153.605 Y91.784 E50.53426
G1 X152.4 Y93.85 E50.65358
G1 X151.6 Y94.74 E50.71328
G1 X151.6 Y135.254 E52.73453
G1 X152.379 Y136.12 E52.79265
G1 X153.651 Y138.322 E52.91952
G1 X154.394 Y140.613 E53.03968
G1 X154.631 Y143.045 E53.16158
G1 X154.394 Y145.388 E53.27907
G1 X153.607 Y147.783 E53.40485
G1 X152.397 Y149.858 E53.52468
G1 X150.8 Y151.635 E53.64388
G1 X148.812 Y153.081 E53.76652
G1 X146.565 Y154.07 E53.88901
G1 X144.227 Y154.569 E54.00828
G1 X141.773 Y154.569 E54.13071
G1 X139.435 Y154.07 E54.24998
G1 X137.197 Y153.084 E54.37199
G1 X135.283 Y151.692 E54.49006
G1 X135.185 Y151.6 E54.49677
G1 X94.815 Y151.6 E56.51083
G1 X94.717 Y151.692 E56.51754
G1 X92.803 Y153.084 E56.63561
G1 X90.565 Y154.07 E56.75762
G1 X88.227 Y154.569 E56.87689
G1 X85.773 Y154.569 E56.99932
G1 X83.435 Y154.07 E57.11859
G1 X81.188 Y153.081 E57.24108
G1 X79.216 Y151.649 E57.36266
G1 X77.6 Y149.859 E57.48298
G1 X76.35 Y147.693 E57.60774
G1 X75.606 Y145.398 E57.72811
G1 X75.369 Y142.955 E57.85056
G1 X75.606 Y140.611 E57.9681
G1 X76.392 Y138.22 E58.09367
G1 X77.597 Y136.15 E58.21316
G1 X78.4 Y135.265 E58.27278
G1 X78.4 Y94.746 E60.29428
G1 X77.6 Y93.859 E60.35387
G1 X76.35 Y91.693 E60.47864
G1 X75.606 Y89.398 E60.59901
G1 X75.369 Y86.955 E60.72146
G1 X75.606 Y84.611 E60.839
G1 X76.392 Y82.22 E60.96457
G1 X77.595 Y80.152 E61.08393
G1 X79.215 Y78.346 E61.20496
G0 F6000 X79.484 Y78.646
G1 F900 X81.391 Y77.266 E61.3224
G1 X83.559 Y76.312 E61.44057
G1 X85.812 Y75.831 E61.55551
G1 X88.166 Y75.827 E61.67295
G1 X90.389 Y76.29 E61.78624
G1 X92.6 Y77.263 E61.90675
G1 X94.488 Y78.636 E62.02322
G1 X94.648 Y78.8 E62.03465
G1 X135.352 Y78.8 E64.06538
G1 X135.512 Y78.636 E64.07681
G1 X137.4 Y77.263 E64.19328
G1 X139.558 Y76.313 E64.31091
G1 X141.815 Y75.831 E64.42605
G1 X144.185 Y75.831 E64.54429
G1 X146.442 Y76.313 E64.65944
G1 X148.609 Y77.266 E64.77754
G1 X150.516 Y78.651 E64.89513
G1 X152.055 Y80.358 E65.00979
G1 X153.282 Y82.482 E65.13217
G1 X154 Y84.697 E65.24833
G1 X154.229 Y87.044 E65.36598
G1 X154 Y89.304 E65.47931
G1 X153.239 Y91.616 E65.60075
G1 X152.073 Y93.615 E65.7162
G1 X151.2 Y94.587 E65.78138
G1 X151.2 Y135.408 E67.81795
G1 X152.055 Y136.358 E67.88172
G1 X153.282 Y138.482 E68.00409
G1 X154 Y140.697 E68.12026
G1 X154.229 Y143.044 E68.23791
G1 X154 Y145.304 E68.35124
G1 X153.241 Y147.615 E68.47259
G1 X152.07 Y149.623 E68.58856
G1 X150.531 Y151.336 E68.70345
G1 X148.61 Y152.733 E68.82195
G1 X146.442 Y153.687 E68.94012
G1 X144.185 Y154.169 E69.05527
G1 X141.815 Y154.169 E69.1735
G1 X139.558 Y153.687 E69.28865
G1 X137.396 Y152.735 E69.4065
G1 X135.518 Y151.369 E69.52236
G1 X135.353 Y151.2 E69.53414
G1 X94.647 Y151.2 E71.56497
G1 X94.482 Y151.369 E71.57676
G1 X92.604 Y152.735 E71.69262
G1 X90.442 Y153.687 E71.81047
G1 X88.185 Y154.169 E71.92561
G1 X85.815 Y154.169 E72.04385
G1 X83.558 Y153.687 E72.15899
G1 X81.39 Y152.733 E72.27717
G1 X79.484 Y151.349 E72.39468
G1 X77.924 Y149.621 E72.51082
G1 X76.717 Y147.529 E72.63132
G1 X76 Y145.318 E72.74728
G1 X75.771 Y142.956 E72.86568
G1 X76 Y140.695 E72.97906
G1 X76.759 Y138.385 E73.10036
G1 X77.922 Y136.387 E73.2157
G1 X78.8 Y135.419 E73.2809
G1 X78.8 Y94.592 E75.31777
G1 X77.924 Y93.621 E75.38301
G1 X76.717 Y91.529 E75.50351
G1 X76 Y89.318 E75.61947
G1 X75.771 Y86.956 E75.73786
G1 X76 Y84.695 E75.85124
G1 X76.759 Y82.385 E75.97255
G1 X77.92 Y80.389 E76.08775
G1 X79.484 Y78.646 E76.20459
G0 F6000 X79.753 Y78.946
G1 F900 X81.593 Y77.614 E76.31791
G1 X83.683 Y76.694 E76.43184
G1 X85.853 Y76.231 E76.54254
G1 X88.123 Y76.227 E76.65579
G1 X90.269 Y76.674 E76.76515
G1 X92.401 Y77.612 E76.88136
G1 X94.253 Y78.959 E76.99561
G1 X94.469 Y79.2 E77.01175
G1 X135.531 Y79.2 E79.06034
G1 X135.747 Y78.959 E79.07649
G1 X137.599 Y77.612 E79.19074
G1 X139.682 Y76.695 E79.30429
G1 X141.856 Y76.231 E79.41519
G1 X144.144 Y76.231 E79.52934
G1 X146.318 Y76.695 E79.64024
G1 X148.407 Y77.614 E79.7541
G1 X150.248 Y78.951 E79.86762
G1 X151.731 Y80.596 E79.97811
G1 X152.915 Y82.646 E80.09622
G1 X153.606 Y84.777 E80.20799
G1 X153.827 Y87.043 E80.32158
G1 X153.606 Y89.22 E80.43074
G1 X152.873 Y91.448 E80.54776
G1 X151.746 Y93.38 E80.65935
G1 X150.8 Y94.434 E80.73001
G1 X150.8 Y135.562 E82.78189
G1 X151.731 Y136.596 E82.85131
G1 X152.915 Y138.646 E82.96942
G1 X153.606 Y140.777 E83.08118
G1 X153.827 Y143.043 E83.19477
G1 X153.606 Y145.22 E83.30394
G1 X152.874 Y147.449 E83.42099
G1 X151.745 Y149.386 E83.53284
G1 X150.262 Y151.037 E83.64356
G1 X148.408 Y152.385 E83.75792
G1 X146.318 Y153.305 E83.87185
G1 X144.144 Y153.769 E83.98275
G1 X141.856 Y153.769 E84.0969
G1 X139.682 Y153.305 E84.2078
G1 X137.595 Y152.386 E84.32157
G1 X135.753 Y151.046 E84.43521
G1 X135.532 Y150.8 E84.45171
G1 X94.468 Y150.8 E86.5004
G1 X94.247 Y151.046 E86.5169
G1 X92.405 Y152.386 E86.63054
G1 X90.318 Y153.305 E86.74431
G1 X88.144 Y153.769 E86.85522
G1 X85.856 Y153.769 E86.96936
G1 X83.682 Y153.305 E87.08027
G1 X81.592 Y152.385 E87.19419
G1 X79.752 Y151.049 E87.30764
G1 X78.248 Y149.383 E87.41962
G1 X77.086 Y147.369 E87.53562
G1 X76.394 Y145.234 E87.64759
G1 X76.173 Y142.957 E87.76172
G1 X76.394 Y140.779 E87.87094
G1 X77.126 Y138.55 E87.98799
G1 X78.247 Y136.624 E88.09917
G1 X79.2 Y135.573 E88.16995
G1 X79.2 Y94.438 E90.22218
G1 X78.248 Y93.383 E90.29308
G1 X77.086 Y91.369 E90.40908
G1 X76.394 Y89.234 E90.52105
G1 X76.173 Y86.957 E90.63519
G1 X76.394 Y84.779 E90.74441
G1 X77.126 Y82.55 E90.86145
G1 X78.245 Y80.626 E90.9725
G1 X79.753 Y78.946 E91.08513
G0 F6000 X80.022 Y79.246
G1 F900 X81.795 Y77.962 E91.19434
G1 X83.806 Y77.077 E91.30396
G1 X85.895 Y76.631 E91.41053
G1 X88.08 Y76.627 E91.51954
G1 X90.149 Y77.058 E91.62497
G1 X92.202 Y77.961 E91.73687
G1 X93.981 Y79.255 E91.84662
G1 X94.291 Y79.6 E91.86976
G1 X135.709 Y79.6 E93.93611
G1 X136.019 Y79.255 E93.95925
G1 X137.798 Y77.961 E94.069
G1 X139.805 Y77.078 E94.17839
G1 X141.898 Y76.631 E94.28517
G1 X144.102 Y76.631 E94.39513
G1 X146.195 Y77.078 E94.5019
G1 X148.205 Y77.962 E94.61145
G1 X149.98 Y79.251 E94.72089
G1 X151.407 Y80.834 E94.82722
G1 X152.548 Y82.81 E94.94106
G1 X153.212 Y84.857 E95.04842
G1 X153.425 Y87.042 E95.15795
G1 X153.212 Y89.136 E95.26296
G1 X152.506 Y91.284 E95.37576
G1 X151.422 Y93.142 E95.48308
G1 X150.4 Y94.281 E95.55943
G1 X150.4 Y135.716 E97.62663
G1 X151.407 Y136.834 E97.7017
G1 X152.548 Y138.81 E97.81553
G1 X153.212 Y140.857 E97.9229
G1 X153.425 Y143.042 E98.03242
G1 X153.212 Y145.136 E98.13743
G1 X152.507 Y147.284 E98.25022
G1 X151.42 Y149.149 E98.35792
G1 X149.993 Y150.738 E98.46447
G1 X148.206 Y152.037 E98.57469
G1 X146.195 Y152.922 E98.6843
G1 X144.102 Y153.369 E98.79108
G1 X141.898 Y153.369 E98.90104
G1 X139.805 Y152.922 E99.00781
G1 X137.794 Y152.037 E99.11743
G1 X136.022 Y150.748 E99.22675
G1 X135.709 Y150.4 E99.2501
G1 X94.291 Y150.4 E101.31645
G1 X93.978 Y150.748 E101.3398
G1 X92.206 Y152.037 E101.44912
G1 X90.195 Y152.922 E101.55874
G1 X88.102 Y153.369 E101.66551
G1 X85.898 Y153.369 E101.77547
G1 X83.805 Y152.922 E101.88225
G1 X81.794 Y152.037 E101.99186
G1 X80.02 Y150.749 E102.10123
G1 X78.572 Y149.145 E102.20904
G1 X77.453 Y147.205 E102.32078
G1 X76.788 Y145.154 E102.42834
G1 X76.575 Y142.958 E102.53842
G1 X76.788 Y140.863 E102.64348
G1 X77.493 Y138.715 E102.75627
G1 X78.572 Y136.861 E102.86329
G1 X79.6 Y135.727 E102.93965
G1 X79.6 Y94.284 E105.00725
G1 X78.572 Y93.145 E105.08379
G1 X77.453 Y91.205 E105.19553
G1 X76.788 Y89.154 E105.3031
G1 X76.575 Y86.958 E105.41317
G1 X76.788 Y84.863 E105.51823
G1 X77.493 Y82.715 E105.63102
G1 X78.57 Y80.863 E105.7379
G1 X80.022 Y79.246 E105.84633
G0 F6000 X80.291 Y79.546
G1 F900 X81.997 Y78.31 E105.95143
G1 X83.93 Y77.459 E106.0568
G1 X85.936 Y77.031 E106.15913
G1 X88.037 Y77.027 E106.26395
G1 X90.029 Y77.442 E106.36547
G1 X92.003 Y78.31 E106.47305
G1 X93.712 Y79.553 E106.57848
G1 X94.114 Y80 E106.60847
G1 X135.886 Y80 E108.69248
G1 X136.288 Y79.553 E108.72248
G1 X137.997 Y78.31 E108.82791
G1 X139.929 Y77.46 E108.93321
G1 X141.939 Y77.031 E109.03575
G1 X144.061 Y77.031 E109.14162
G1 X146.071 Y77.46 E109.24415
G1 X148.003 Y78.31 E109.34946
G1 X149.712 Y79.551 E109.45483
G1 X151.083 Y81.072 E109.55699
G1 X152.179 Y82.97 E109.66633
G1 X152.818 Y84.941 E109.76971
G1 X153.023 Y87.04 E109.87492
G1 X152.818 Y89.053 E109.97587
G1 X152.139 Y91.12 E110.08442
G1 X151.098 Y92.904 E110.18747
G1 X150 Y94.128 E110.2695
G1 X150 Y135.87 E112.35202
G1 X151.083 Y137.072 E112.43274
G1 X152.179 Y138.97 E112.54208
G1 X152.818 Y140.941 E112.64545
G1 X153.023 Y143.04 E112.75067
G1 X152.818 Y145.053 E112.85162
G1 X152.14 Y147.119 E112.9601
G1 X151.095 Y148.912 E113.06364
G1 X149.724 Y150.439 E113.16602
G1 X148.004 Y151.689 E113.2721
G1 X146.071 Y152.54 E113.37747
G1 X144.061 Y152.969 E113.48001
G1 X141.939 Y152.969 E113.58587
G1 X139.929 Y152.54 E113.68841
G1 X137.996 Y151.689 E113.79378
G1 X136.288 Y150.447 E113.89914
G1 X135.886 Y150 E113.92914
G1 X94.114 Y150 E116.01315
G1 X93.712 Y150.447 E116.04314
G1 X92.004 Y151.689 E116.1485
G1 X90.071 Y152.54 E116.25387
G1 X88.061 Y152.969 E116.35641
G1 X85.939 Y152.969 E116.46228
G1 X83.929 Y152.54 E116.56481
G1 X81.996 Y151.689 E116.67018
G1 X80.288 Y150.449 E116.77548
G1 X78.896 Y148.907 E116.87912
G1 X77.822 Y147.045 E116.98637
G1 X77.182 Y145.07 E117.08994
G1 X76.977 Y142.96 E117.19571
G1 X77.182 Y140.946 E117.29671
G1 X77.86 Y138.88 E117.40519
