;FLAVOR:Marlin
;TIME:21605
;Filament used: 16.8569m
;Layer height: 0.2
;MINX:69.015
;MINY:69.034
;MINZ:0.2
;MAXX:160.985
;MAXY:160.966
;MAXZ:50
;TARGET_MACHINE.NAME:Creality Ender-3 S1
;KLIPPERSETTINGSPROCESSED
SET_VELOCITY_LIMIT ACCEL_TO_DECEL=7000 SQUARE_CORNER_VELOCITY=1 ;KlipperSettingsPlugin
SET_INPUT_SHAPER SHAPER_FREQ_X=0 SHAPER_FREQ_Y=0 ;KlipperSettingsPlugin
SET_PRESSURE_ADVANCE ADVANCE=0 EXTRUDER=extruder ;KlipperSettingsPlugin

;Generated with Cura_SteamEngine 5.5.0
M140 S70
M105
M190 S70
M104 S215
M105
M109 S215
M82 ;absolute extrusion mode
START_PRINT
G92 E0
G92 E0
G1 F2400 E-0.8
;LAYER_COUNT:250
TUNING_TOWER COMMAND=SET_VELOCITY_LIMIT PARAMETER=ACCEL START=1500 STEP_DELTA=500 STEP_HEIGHT=5 ;KlipperSettingsPlugin
;LAYER:0
M107
M204 S2000
G0 F6000 X73.997 Y73.404 Z0.2
M204 S500
;TYPE:SKIRT
G1 F2400 E0
G1 F900 X74.976 Y72.569 E0.0428
G1 X75.638 Y72.068 E0.07041
G1 X76.173 Y71.685 E0.09229
G1 X76.966 Y71.181 E0.12354
G1 X77.873 Y70.711 E0.15752
G1 X78.853 Y70.262 E0.19337
G1 X79.69 Y69.922 E0.22342
G1 X80.907 Y69.562 E0.26563
G1 X81.67 Y69.384 E0.29169
G1 X82.246 Y69.264 E0.31126
G1 X83.251 Y69.111 E0.34507
G1 X84.193 Y69.05 E0.37647
G1 X84.995 Y69.034 E0.40315
G1 X85.663 Y69.039 E0.42537
G1 X86.634 Y69.099 E0.45773
G1 X87.527 Y69.232 E0.48775
G1 X88.347 Y69.389 E0.51552
G1 X89.034 Y69.542 E0.53893
G1 X89.593 Y69.687 E0.55814
G1 X90.244 Y69.874 E0.58067
G1 X92.752 Y70.559 E0.66714
G1 X95.222 Y71.158 E0.75167
G1 X97.678 Y71.683 E0.83521
G1 X100.165 Y72.141 E0.91932
G1 X102.624 Y72.521 E1.00207
G1 X105.137 Y72.837 E1.08631
G1 X107.644 Y73.08 E1.17009
G1 X110.127 Y73.251 E1.25287
G1 X112.704 Y73.356 E1.33865
G1 X115.16 Y73.386 E1.42034
G1 X117.697 Y73.344 E1.50474
G1 X120.239 Y73.231 E1.58937
G1 X122.728 Y73.05 E1.67237
G1 X125.208 Y72.799 E1.75528
G1 X127.731 Y72.47 E1.8399
G1 X130.242 Y72.072 E1.92446
G1 X132.691 Y71.611 E2.00735
G1 X135.118 Y71.085 E2.08994
G1 X137.574 Y70.477 E2.1741
G1 X140.236 Y69.731 E2.26604
G1 X140.69 Y69.613 E2.28165
G1 X141.672 Y69.384 E2.31518
G1 X142.246 Y69.264 E2.33469
G1 X143.251 Y69.111 E2.3685
G1 X144.193 Y69.05 E2.3999
G1 X144.995 Y69.034 E2.42658
G1 X145.663 Y69.039 E2.44879
G1 X146.634 Y69.099 E2.48115
G1 X147.527 Y69.232 E2.51118
G1 X148.347 Y69.389 E2.53895
G1 X148.977 Y69.528 E2.56041
G1 X149.915 Y69.789 E2.59279
G1 X150.788 Y70.116 E2.6238
G1 X152.048 Y70.665 E2.66951
G1 X152.885 Y71.095 E2.70081
G1 X153.818 Y71.689 E2.73759
G1 X154.685 Y72.307 E2.77301
G1 X155.457 Y72.912 E2.80563
G1 X156.267 Y73.683 E2.84282
G1 X156.869 Y74.322 E2.87202
G1 X157.343 Y74.857 E2.8958
G1 X157.903 Y75.566 E2.92585
G1 X158.414 Y76.334 E2.95653
G1 X158.824 Y77.012 E2.98288
G1 X159.148 Y77.579 E3.0046
G1 X159.581 Y78.449 E3.03692
G1 X159.923 Y79.312 E3.0678
G1 X160.184 Y80.065 E3.0943
G1 X160.378 Y80.673 E3.11553
G1 X160.608 Y81.547 E3.14559
G1 X160.781 Y82.554 E3.17957
G1 X160.877 Y83.329 E3.20555
G1 X160.941 Y83.965 E3.22681
G1 X160.985 Y84.937 E3.25917
G1 X160.946 Y85.884 E3.29069
G1 X160.878 Y86.674 E3.31707
G1 X160.809 Y87.295 E3.33785
G1 X160.664 Y88.187 E3.36791
G1 X160.458 Y89.025 E3.39661
G1 X159.721 Y91.587 E3.48528
G1 X159.091 Y94.035 E3.56935
G1 X158.531 Y96.501 E3.65346
G1 X158.042 Y98.976 E3.73737
G1 X157.627 Y101.441 E3.82051
G1 X157.284 Y103.906 E3.90328
G1 X157.003 Y106.446 E3.98828
G1 X156.795 Y108.96 E4.07218
G1 X156.664 Y111.418 E4.15405
G1 X156.597 Y113.992 E4.23969
G1 X156.605 Y116.478 E4.32238
G1 X156.683 Y119.01 E4.40663
G1 X156.831 Y121.504 E4.48973
G1 X157.051 Y124.015 E4.57356
G1 X157.344 Y126.519 E4.65742
G1 X157.702 Y128.996 E4.74066
G1 X158.135 Y131.48 E4.82452
G1 X158.632 Y133.926 E4.90754
G1 X159.204 Y136.38 E4.99135
G1 X159.856 Y138.856 E5.07651
G1 X160.436 Y140.858 E5.14583
G1 X160.655 Y141.766 E5.1769
G1 X160.777 Y142.526 E5.2025
G1 X160.876 Y143.322 E5.22918
G1 X160.941 Y143.965 E5.25067
G1 X160.985 Y144.937 E5.28303
G1 X160.947 Y145.876 E5.31429
G1 X160.881 Y146.651 E5.34016
G1 X160.808 Y147.304 E5.36201
G1 X160.649 Y148.264 E5.39438
G1 X160.417 Y149.168 E5.42542
G1 X160.181 Y149.948 E5.45253
G1 X159.982 Y150.546 E5.47349
G1 X159.616 Y151.469 E5.50651
G1 X159.213 Y152.279 E5.5366
G1 X158.829 Y152.976 E5.56307
G1 X158.49 Y153.555 E5.58539
G1 X157.951 Y154.37 E5.61789
G1 X157.329 Y155.147 E5.65099
G1 X156.629 Y155.944 E5.68627
G1 X156.003 Y156.596 E5.71633
G1 X155.025 Y157.431 E5.7591
G1 X154.363 Y157.932 E5.78672
G1 X153.849 Y158.301 E5.80776
G1 X153.089 Y158.788 E5.83778
G1 X152.128 Y159.289 E5.87383
G1 X151.148 Y159.738 E5.90968
G1 X150.311 Y160.078 E5.93973
G1 X149.091 Y160.438 E5.98204
G1 X148.327 Y160.616 E6.00813
G1 X147.754 Y160.736 E6.0276
G1 X146.749 Y160.889 E6.06141
G1 X145.807 Y160.95 E6.09281
G1 X145.005 Y160.966 E6.11949
G1 X144.337 Y160.961 E6.14171
G1 X143.366 Y160.901 E6.17406
G1 X142.473 Y160.768 E6.20409
G1 X141.653 Y160.611 E6.23186
G1 X140.966 Y160.458 E6.25527
G1 X140.407 Y160.313 E6.27448
G1 X139.756 Y160.126 E6.29701
G1 X137.248 Y159.441 E6.38348
G1 X134.778 Y158.842 E6.46801
G1 X132.322 Y158.317 E6.55155
G1 X129.835 Y157.859 E6.63565
G1 X127.376 Y157.479 E6.71841
G1 X124.863 Y157.163 E6.80265
G1 X122.356 Y156.92 E6.88643
G1 X119.873 Y156.749 E6.96921
G1 X117.296 Y156.644 E7.05499
G1 X114.84 Y156.614 E7.13668
G1 X112.303 Y156.656 E7.22107
G1 X109.761 Y156.769 E7.30571
G1 X107.272 Y156.95 E7.38871
G1 X104.792 Y157.201 E7.47162
G1 X102.269 Y157.53 E7.55624
G1 X99.758 Y157.928 E7.6408
G1 X97.309 Y158.389 E7.72368
G1 X94.882 Y158.915 E7.80628
G1 X92.428 Y159.523 E7.89037
G1 X89.764 Y160.269 E7.98238
G1 X89.31 Y160.387 E7.99798
G1 X88.328 Y160.616 E8.03152
G1 X87.754 Y160.736 E8.05103
G1 X86.749 Y160.889 E8.08484
G1 X85.807 Y160.95 E8.11623
G1 X85.005 Y160.966 E8.14291
G1 X84.337 Y160.961 E8.16513
G1 X83.366 Y160.901 E8.19749
G1 X82.473 Y160.768 E8.22752
G1 X81.653 Y160.611 E8.25529
G1 X81.023 Y160.472 E8.27675
G1 X80.085 Y160.211 E8.30913
G1 X79.212 Y159.884 E8.34013
G1 X77.952 Y159.335 E8.38585
G1 X77.085 Y158.888 E8.41829
G1 X76.253 Y158.361 E8.45105
G1 X75.583 Y157.892 E8.47825
G1 X75.078 Y157.52 E8.49911
G1 X74.33 Y156.901 E8.5314
G1 X73.703 Y156.285 E8.56064
G1 X73.131 Y155.678 E8.58838
G1 X72.657 Y155.143 E8.61215
G1 X72.097 Y154.434 E8.6422
G1 X71.586 Y153.666 E8.67288
G1 X71.176 Y152.988 E8.69924
G1 X70.852 Y152.421 E8.72096
G1 X70.419 Y151.551 E8.75328
G1 X70.077 Y150.688 E8.78415
G1 X69.816 Y149.935 E8.81066
G1 X69.622 Y149.327 E8.83189
G1 X69.392 Y148.453 E8.86195
G1 X69.218 Y147.441 E8.8961
G1 X69.121 Y146.655 E8.92244
G1 X69.059 Y146.036 E8.94313
G1 X69.015 Y145.064 E8.97549
G1 X69.054 Y144.116 E9.00705
G1 X69.122 Y143.326 E9.03342
G1 X69.191 Y142.708 E9.05411
G1 X69.335 Y141.817 E9.08413
G1 X69.542 Y140.973 E9.11303
G1 X70.282 Y138.403 E9.20198
G1 X70.909 Y135.965 E9.28571
G1 X71.469 Y133.499 E9.36981
G1 X71.958 Y131.024 E9.45372
G1 X72.373 Y128.559 E9.53686
G1 X72.716 Y126.094 E9.61964
G1 X72.997 Y123.554 E9.70464
G1 X73.205 Y121.04 E9.78854
G1 X73.336 Y118.582 E9.87041
G1 X73.403 Y116.008 E9.95605
G1 X73.395 Y113.5 E10.03947
G1 X73.317 Y110.99 E10.12299
G1 X73.167 Y108.473 E10.20685
G1 X72.947 Y105.962 E10.29069
G1 X72.655 Y103.471 E10.37411
G1 X72.294 Y100.979 E10.45786
G1 X71.861 Y98.498 E10.54162
G1 X71.368 Y96.074 E10.6239
G1 X70.788 Y93.589 E10.70877
G1 X70.141 Y91.132 E10.79327
G1 X69.564 Y89.141 E10.86222
G1 X69.345 Y88.233 E10.89329
G1 X69.222 Y87.47 E10.91899
G1 X69.121 Y86.657 E10.94624
G1 X69.058 Y86.021 E10.9675
G1 X69.015 Y85.049 E10.99986
G1 X69.054 Y84.116 E11.03092
G1 X69.122 Y83.326 E11.05729
G1 X69.191 Y82.704 E11.0781
G1 X69.35 Y81.743 E11.1105
G1 X69.585 Y80.827 E11.14195
G1 X69.822 Y80.046 E11.1691
G1 X70.026 Y79.433 E11.19059
G1 X70.384 Y78.53 E11.2229
G1 X70.786 Y77.721 E11.25294
G1 X71.176 Y77.013 E11.27983
G1 X71.52 Y76.428 E11.3024
G1 X72.061 Y75.615 E11.33488
G1 X72.671 Y74.853 E11.36734
G1 X73.371 Y74.056 E11.40262
G1 X73.997 Y73.404 E11.43269
M204 S2000
G0 F6000 X74.286 Y73.681
M204 S500
G1 F900 X75.217 Y72.888 E11.47336
G1 X75.871 Y72.393 E11.50064
G1 X76.388 Y72.023 E11.52179
G1 X77.181 Y71.519 E11.55304
G1 X78.04 Y71.075 E11.5852
G1 X79.004 Y70.633 E11.62047
G1 X79.841 Y70.293 E11.65052
G1 X80.998 Y69.952 E11.69064
G1 X81.752 Y69.776 E11.71639
G1 X82.328 Y69.656 E11.73596
G1 X83.277 Y69.51 E11.7679
G1 X84.201 Y69.45 E11.79869
G1 X84.993 Y69.434 E11.82504
G1 X85.639 Y69.438 E11.84653
G1 X86.575 Y69.495 E11.87772
G1 X87.452 Y69.625 E11.9072
G1 X88.261 Y69.78 E11.9346
G1 X88.934 Y69.929 E11.95753
G1 X89.482 Y70.071 E11.97636
G1 X90.139 Y70.26 E11.99909
G1 X92.658 Y70.948 E12.08595
G1 X95.128 Y71.547 E12.17048
G1 X97.594 Y72.074 E12.25435
G1 X100.104 Y72.536 E12.33924
G1 X102.574 Y72.918 E12.42237
G1 X105.087 Y73.234 E12.50661
G1 X107.611 Y73.479 E12.59095
G1 X110.111 Y73.651 E12.6743
G1 X112.688 Y73.756 E12.76008
G1 X115.162 Y73.786 E12.84237
G1 X117.715 Y73.744 E12.92729
G1 X120.257 Y73.631 E13.01193
G1 X122.761 Y73.449 E13.09543
G1 X125.26 Y73.196 E13.17897
G1 X127.783 Y72.867 E13.2636
G1 X130.305 Y72.467 E13.34853
G1 X132.776 Y72.002 E13.43216
G1 X135.203 Y71.476 E13.51475
G1 X137.681 Y70.862 E13.59966
G1 X140.336 Y70.118 E13.69137
G1 X140.781 Y70.003 E13.70666
G1 X141.754 Y69.776 E13.73989
G1 X142.328 Y69.656 E13.75939
G1 X143.277 Y69.51 E13.79133
G1 X144.201 Y69.45 E13.82212
G1 X144.993 Y69.434 E13.84847
G1 X145.639 Y69.438 E13.86996
G1 X146.575 Y69.495 E13.90115
G1 X147.452 Y69.625 E13.93064
G1 X148.261 Y69.78 E13.95803
G1 X148.87 Y69.914 E13.97877
G1 X149.775 Y70.164 E14.01
G1 X150.628 Y70.483 E14.04029
G1 X151.865 Y71.021 E14.08516
G1 X152.702 Y71.451 E14.11645
G1 X153.586 Y72.015 E14.15133
G1 X154.439 Y72.622 E14.18615
G1 X155.181 Y73.202 E14.21747
G1 X155.991 Y73.973 E14.25467
G1 X156.57 Y74.588 E14.28276
G1 X157.029 Y75.105 E14.30576
G1 X157.589 Y75.814 E14.33581
G1 X158.072 Y76.541 E14.36484
G1 X158.477 Y77.21 E14.39085
G1 X158.79 Y77.758 E14.41184
G1 X159.209 Y78.596 E14.443
G1 X159.545 Y79.443 E14.47331
G1 X159.803 Y80.187 E14.4995
G1 X159.991 Y80.775 E14.52003
G1 X160.221 Y81.649 E14.55009
G1 X160.384 Y82.603 E14.58228
G1 X160.479 Y83.369 E14.60795
G1 X160.541 Y83.984 E14.62851
G1 X160.585 Y84.921 E14.65971
G1 X160.547 Y85.85 E14.69063
G1 X160.48 Y86.63 E14.71667
G1 X160.414 Y87.231 E14.73678
G1 X160.269 Y88.123 E14.76684
G1 X160.074 Y88.914 E14.79394
G1 X159.337 Y91.476 E14.8826
G1 X158.704 Y93.935 E14.96706
G1 X158.141 Y96.412 E15.05154
G1 X157.65 Y98.898 E15.13583
G1 X157.233 Y101.375 E15.21937
G1 X156.886 Y103.862 E15.30289
G1 X156.605 Y106.402 E15.38789
G1 X156.397 Y108.927 E15.47215
G1 X156.264 Y111.408 E15.55479
G1 X156.197 Y113.982 E15.64043
G1 X156.205 Y116.49 E15.72385
G1 X156.283 Y119.022 E15.8081
G1 X156.433 Y121.539 E15.89197
G1 X156.654 Y124.061 E15.97617
G1 X156.948 Y126.576 E16.06039
G1 X157.308 Y129.065 E16.14403
G1 X157.743 Y131.56 E16.22827
G1 X158.242 Y134.017 E16.31166
G1 X158.817 Y136.482 E16.39584
G1 X159.469 Y138.958 E16.481
G1 X160.047 Y140.952 E16.55006
G1 X160.26 Y141.83 E16.5801
G1 X160.38 Y142.575 E16.6052
G1 X160.478 Y143.362 E16.63158
G1 X160.541 Y143.984 E16.65237
G1 X160.585 Y144.921 E16.68357
G1 X160.548 Y145.842 E16.71423
G1 X160.483 Y146.607 E16.73977
G1 X160.413 Y147.239 E16.76092
G1 X160.261 Y148.165 E16.79213
G1 X160.034 Y149.052 E16.82258
G1 X159.801 Y149.822 E16.84934
G1 X159.61 Y150.399 E16.86955
G1 X159.258 Y151.291 E16.90145
G1 X158.863 Y152.086 E16.93097
G1 X158.484 Y152.774 E16.9571
G1 X158.156 Y153.335 E16.97871
G1 X157.639 Y154.12 E17.00997
G1 X157.029 Y154.883 E17.04246
G1 X156.34 Y155.667 E17.07718
G1 X155.714 Y156.319 E17.10724
G1 X154.783 Y157.112 E17.14792
G1 X154.13 Y157.607 E17.17517
G1 X153.633 Y157.964 E17.19552
G1 X152.873 Y158.451 E17.22555
G1 X151.961 Y158.925 E17.25973
G1 X150.997 Y159.367 E17.295
G1 X150.16 Y159.707 E17.32505
G1 X149 Y160.048 E17.36527
G1 X148.245 Y160.224 E17.39105
G1 X147.672 Y160.344 E17.41052
G1 X146.723 Y160.49 E17.44246
G1 X145.799 Y160.55 E17.47325
G1 X145.007 Y160.566 E17.4996
G1 X144.361 Y160.562 E17.52109
G1 X143.425 Y160.505 E17.55228
G1 X142.548 Y160.375 E17.58177
G1 X141.739 Y160.22 E17.60916
G1 X141.066 Y160.071 E17.63209
G1 X140.518 Y159.929 E17.65092
G1 X139.861 Y159.74 E17.67366
G1 X137.342 Y159.052 E17.76051
G1 X134.872 Y158.453 E17.84504
G1 X132.406 Y157.926 E17.92891
G1 X129.896 Y157.464 E18.0138
G1 X127.426 Y157.082 E18.09693
G1 X124.913 Y156.766 E18.18117
G1 X122.389 Y156.521 E18.26551
G1 X119.889 Y156.349 E18.34886
G1 X117.312 Y156.244 E18.43464
G1 X114.838 Y156.214 E18.51693
G1 X112.285 Y156.256 E18.60186
G1 X109.743 Y156.369 E18.68649
G1 X107.239 Y156.551 E18.76999
G1 X104.74 Y156.804 E18.85353
G1 X102.217 Y157.133 E18.93816
G1 X99.695 Y157.533 E19.02309
G1 X97.224 Y157.998 E19.10672
G1 X94.797 Y158.524 E19.18931
G1 X92.32 Y159.138 E19.27419
G1 X89.664 Y159.882 E19.36593
G1 X89.219 Y159.997 E19.38122
G1 X88.246 Y160.224 E19.41445
G1 X87.672 Y160.344 E19.43395
G1 X86.723 Y160.49 E19.46589
G1 X85.799 Y160.55 E19.49669
G1 X85.007 Y160.566 E19.52303
G1 X84.361 Y160.562 E19.54452
G1 X83.425 Y160.505 E19.57571
G1 X82.548 Y160.375 E19.6052
G1 X81.739 Y160.22 E19.63259
G1 X81.13 Y160.086 E19.65333
G1 X80.225 Y159.836 E19.68456
G1 X79.372 Y159.517 E19.71485
G1 X78.135 Y158.979 E19.75972
G1 X77.299 Y158.55 E19.79097
G1 X76.482 Y158.033 E19.82313
G1 X75.82 Y157.57 E19.85
G1 X75.333 Y157.212 E19.8701
G1 X74.61 Y156.615 E19.90128
G1 X73.994 Y156.011 E19.92998
G1 X73.43 Y155.412 E19.95734
G1 X72.971 Y154.895 E19.98034
G1 X72.411 Y154.186 E20.01039
G1 X71.928 Y153.459 E20.03942
G1 X71.523 Y152.79 E20.06543
G1 X71.21 Y152.242 E20.08642
G1 X70.791 Y151.404 E20.11758
G1 X70.455 Y150.557 E20.14789
G1 X70.197 Y149.813 E20.17408
G1 X70.009 Y149.225 E20.19461
G1 X69.779 Y148.351 E20.22467
G1 X69.615 Y147.392 E20.25703
G1 X69.519 Y146.615 E20.28307
G1 X69.459 Y146.017 E20.30306
G1 X69.415 Y145.08 E20.33426
G1 X69.453 Y144.15 E20.36521
G1 X69.52 Y143.37 E20.39125
G1 X69.586 Y142.772 E20.41126
G1 X69.73 Y141.881 E20.44128
G1 X69.926 Y141.084 E20.46858
G1 X70.666 Y138.514 E20.55753
G1 X71.296 Y136.065 E20.64164
G1 X71.859 Y133.588 E20.72613
G1 X72.35 Y131.102 E20.81041
G1 X72.767 Y128.625 E20.89395
G1 X73.114 Y126.138 E20.97747
G1 X73.395 Y123.598 E21.06247
G1 X73.603 Y121.073 E21.14673
G1 X73.736 Y118.592 E21.22937
G1 X73.803 Y116.018 E21.31501
G1 X73.795 Y113.499 E21.39879
G1 X73.717 Y110.978 E21.48268
G1 X73.566 Y108.449 E21.56695
G1 X73.345 Y105.927 E21.65115
G1 X73.052 Y103.424 E21.73497
G1 X72.69 Y100.922 E21.81905
G1 X72.255 Y98.429 E21.90322
G1 X71.758 Y95.983 E21.98624
G1 X71.178 Y93.498 E22.07111
G1 X70.528 Y91.03 E22.156
G1 X69.953 Y89.047 E22.22467
G1 X69.74 Y88.169 E22.25472
G1 X69.619 Y87.421 E22.27992
G1 X69.519 Y86.618 E22.30683
G1 X69.458 Y86.003 E22.32739
G1 X69.415 Y85.066 E22.35859
G1 X69.453 Y84.15 E22.38908
G1 X69.52 Y83.37 E22.41512
G1 X69.586 Y82.769 E22.43523
G1 X69.738 Y81.842 E22.46647
G1 X69.968 Y80.943 E22.49734
G1 X70.202 Y80.172 E22.52413
G1 X70.398 Y79.58 E22.54488
G1 X70.742 Y78.708 E22.57605
G1 X71.136 Y77.914 E22.60553
G1 X71.521 Y77.215 E22.63208
G1 X71.853 Y76.649 E22.6539
G1 X72.373 Y75.865 E22.68519
G1 X72.971 Y75.117 E22.71704
G1 X73.66 Y74.333 E22.75176
G1 X74.286 Y73.681 E22.78182
M204 S2000
G0 F6000 X74.575 Y73.958
M204 S500
G1 F900 X75.458 Y73.207 E22.82038
G1 X76.104 Y72.718 E22.84732
G1 X76.603 Y72.36 E22.86775
G1 X77.365 Y71.874 E22.89781
G1 X78.207 Y71.439 E22.92933
G1 X79.155 Y71.004 E22.96402
G1 X79.992 Y70.664 E22.99407
G1 X81.089 Y70.342 E23.0321
G1 X81.834 Y70.168 E23.05754
G1 X82.41 Y70.048 E23.07711
G1 X83.303 Y69.909 E23.10717
G1 X84.209 Y69.85 E23.13737
G1 X84.991 Y69.834 E23.16338
G1 X85.615 Y69.837 E23.18414
G1 X86.517 Y69.891 E23.21419
G1 X87.377 Y70.018 E23.24311
G1 X88.175 Y70.171 E23.27013
G1 X88.834 Y70.316 E23.29257
G1 X89.371 Y70.455 E23.31102
G1 X90.034 Y70.646 E23.33397
G1 X92.564 Y71.337 E23.4212
G1 X95.034 Y71.936 E23.50574
G1 X97.51 Y72.465 E23.58995
G1 X100.043 Y72.931 E23.67561
G1 X102.524 Y73.315 E23.75911
G1 X105.037 Y73.631 E23.84335
G1 X107.578 Y73.878 E23.92826
G1 X110.095 Y74.051 E24.01217
G1 X112.672 Y74.156 E24.09796
G1 X115.164 Y74.186 E24.18085
G1 X117.733 Y74.144 E24.2663
