;FLAVOR:Marlin
;TIME:895
;Filament used: 0.491518m
;Layer height: 0.2
;MINX:11.8
;MINY:11.8
;MINZ:0.2
;MAXX:208.2
;MAXY:208.2
;MAXZ:0.2
;TARGET_MACHINE.NAME:Creality Ender-3 S1
;Generated with Cura_SteamEngine 5.5.0
M140 S80
M105
M190 S80
M104 S235
M105
M109 S235
M82 ;absolute extrusion mode
START_PRINT
G92 E0
G92 E0
G1 F2400 E-1
;LAYER_COUNT:1
;LAYER:0
M107
M204 S2000
G0 F6000 X13.538 Y13.717 Z0.2
M204 S500
;TYPE:SKIRT
G1 F2400 E0
G1 F900 X14.099 Y13.199 E0.03048
G1 X14.671 Y12.786 E0.05863
G1 X15.34 Y12.414 E0.08919
G1 X16.11 Y12.108 E0.12226
G1 X16.872 Y11.917 E0.15361
G1 X17.84 Y11.811 E0.19248
G1 X18.308 Y11.8 E0.21116
G1 X37.307 Y11.8 E0.96945
G1 X38.114 Y11.812 E1.00166
G1 X38.923 Y11.882 E1.03407
G1 X39.811 Y12.081 E1.07039
G1 X40.855 Y12.401 E1.11398
G1 X41.558 Y12.628 E1.14346
G1 X44.047 Y13.351 E1.24691
G1 X46.673 Y14.034 E1.35521
G1 X49.222 Y14.622 E1.45961
G1 X51.849 Y15.15 E1.56656
G1 X54.478 Y15.601 E1.67302
G1 X57.06 Y15.97 E1.77712
G1 X59.713 Y16.272 E1.88369
G1 X62.334 Y16.495 E1.98868
G1 X65.002 Y16.647 E2.09534
G1 X67.673 Y16.724 E2.20199
G1 X70.293 Y16.724 E2.30656
G1 X72.964 Y16.649 E2.4132
G1 X75.633 Y16.499 E2.5199
G1 X78.222 Y16.28 E2.6236
G1 X80.906 Y15.976 E2.73141
G1 X83.5 Y15.608 E2.83598
G1 X86.127 Y15.158 E2.94235
G1 X88.702 Y14.642 E3.04717
G1 X91.309 Y14.043 E3.15393
G1 X93.9 Y13.369 E3.26079
G1 X96.444 Y12.631 E3.36651
G1 X98.197 Y12.08 E3.43985
G1 X98.825 Y11.924 E3.46568
G1 X99.819 Y11.812 E3.5056
G1 X100.33 Y11.8 E3.526
G1 X119.381 Y11.801 E4.28637
G1 X120.114 Y11.812 E4.31563
G1 X120.924 Y11.882 E4.34808
G1 X121.812 Y12.081 E4.3844
G1 X122.856 Y12.401 E4.42798
G1 X123.559 Y12.628 E4.45746
G1 X126.049 Y13.351 E4.56095
G1 X128.673 Y14.034 E4.66917
G1 X131.228 Y14.623 E4.77382
G1 X133.842 Y15.149 E4.88024
G1 X136.478 Y15.601 E4.98699
G1 X139.06 Y15.97 E5.09109
G1 X141.713 Y16.272 E5.19766
G1 X144.334 Y16.495 E5.30264
G1 X147.002 Y16.647 E5.4093
G1 X149.673 Y16.724 E5.51595
G1 X152.293 Y16.724 E5.62052
G1 X154.964 Y16.649 E5.72717
G1 X157.633 Y16.499 E5.83386
G1 X160.222 Y16.28 E5.93756
G1 X162.906 Y15.976 E6.04537
G1 X165.5 Y15.608 E6.14994
G1 X168.127 Y15.158 E6.25632
G1 X170.702 Y14.642 E6.36114
G1 X173.309 Y14.043 E6.4679
G1 X175.9 Y13.369 E6.57475
G1 X178.444 Y12.631 E6.68048
G1 X180.197 Y12.08 E6.75382
G1 X180.825 Y11.924 E6.77964
G1 X181.819 Y11.812 E6.81957
G1 X182.306 Y11.8 E6.83901
G1 X201.374 Y11.8 E7.60005
G1 X202.102 Y11.81 E7.62911
G1 X202.892 Y11.876 E7.66075
G1 X203.526 Y12.003 E7.68656
G1 X204.368 Y12.285 E7.722
G1 X205.052 Y12.619 E7.75238
G1 X205.645 Y13.002 E7.78056
G1 X206.236 Y13.492 E7.8112
G1 X206.8 Y14.098 E7.84424
G1 X207.246 Y14.721 E7.87482
G1 X207.61 Y15.392 E7.90529
G1 X207.891 Y16.107 E7.93595
G1 X208.082 Y16.869 E7.9673
G1 X208.189 Y17.84 E8.00629
G1 X208.2 Y18.33 E8.02585
G1 X208.199 Y37.368 E8.7857
G1 X208.187 Y38.123 E8.81584
G1 X208.116 Y38.934 E8.84833
G1 X207.918 Y39.815 E8.88437
G1 X207.599 Y40.856 E8.92783
G1 X207.368 Y41.573 E8.95789
G1 X206.653 Y44.035 E9.06022
G1 X205.966 Y46.673 E9.16902
G1 X205.372 Y49.248 E9.27449
G1 X204.85 Y51.849 E9.38037
G1 X204.397 Y54.488 E9.48724
G1 X204.026 Y57.088 E9.59206
G1 X203.73 Y59.688 E9.69651
G1 X203.504 Y62.333 E9.80246
G1 X203.353 Y65.002 E9.90915
G1 X203.276 Y67.673 E10.0158
G1 X203.276 Y70.319 E10.12141
G1 X203.351 Y72.964 E10.22702
G1 X203.499 Y75.614 E10.33295
G1 X203.72 Y78.222 E10.43742
G1 X204.024 Y80.906 E10.54523
G1 X204.392 Y83.5 E10.64979
G1 X204.842 Y86.127 E10.75617
G1 X205.353 Y88.681 E10.86013
G1 X205.957 Y91.309 E10.96775
G1 X206.631 Y93.9 E11.0746
G1 X207.366 Y96.431 E11.1798
G1 X207.919 Y98.191 E11.25343
G1 X208.075 Y98.819 E11.27925
G1 X208.188 Y99.818 E11.31938
G1 X208.2 Y100.33 E11.33982
G1 X208.199 Y119.368 E12.09967
G1 X208.187 Y120.123 E12.12981
G1 X208.116 Y120.934 E12.1623
G1 X207.918 Y121.815 E12.19834
G1 X207.599 Y122.856 E12.24179
G1 X207.368 Y123.573 E12.27186
G1 X206.653 Y126.035 E12.37418
G1 X205.966 Y128.673 E12.48298
G1 X205.372 Y131.248 E12.58846
G1 X204.85 Y133.849 E12.69434
G1 X204.397 Y136.488 E12.80121
G1 X204.026 Y139.088 E12.90603
G1 X203.73 Y141.688 E13.01047
G1 X203.504 Y144.333 E13.11642
G1 X203.353 Y147.002 E13.22312
G1 X203.276 Y149.673 E13.32977
G1 X203.276 Y152.319 E13.43538
G1 X203.351 Y154.964 E13.54099
G1 X203.499 Y157.614 E13.64692
G1 X203.72 Y160.222 E13.75138
G1 X204.024 Y162.906 E13.85919
G1 X204.392 Y165.5 E13.96376
G1 X204.842 Y168.127 E14.07014
G1 X205.353 Y170.681 E14.17409
G1 X205.957 Y173.309 E14.28172
G1 X206.631 Y175.9 E14.38857
G1 X207.366 Y178.431 E14.49376
G1 X207.919 Y180.191 E14.56739
G1 X208.075 Y180.819 E14.59322
G1 X208.188 Y181.817 E14.63331
G1 X208.2 Y182.306 E14.65283
G1 X208.2 Y201.341 E15.41256
G1 X208.19 Y202.098 E15.44277
G1 X208.125 Y202.889 E15.47445
G1 X207.982 Y203.582 E15.50269
G1 X207.716 Y204.364 E15.53566
G1 X207.38 Y205.054 E15.56629
G1 X206.962 Y205.693 E15.59677
G1 X206.469 Y206.278 E15.6273
G1 X205.952 Y206.759 E15.65548
G1 X205.283 Y207.242 E15.68842
G1 X204.61 Y207.609 E15.71901
G1 X203.896 Y207.89 E15.74964
G1 X203.134 Y208.082 E15.781
G1 X202.16 Y208.189 E15.82011
G1 X201.67 Y208.2 E15.83967
G1 X182.618 Y208.199 E16.60008
G1 X181.886 Y208.188 E16.6293
G1 X181.077 Y208.118 E16.66171
G1 X180.189 Y207.919 E16.69803
G1 X179.145 Y207.599 E16.74161
G1 X178.438 Y207.371 E16.77126
G1 X175.953 Y206.649 E16.87454
G1 X173.327 Y205.966 E16.98284
G1 X170.778 Y205.378 E17.08725
G1 X168.151 Y204.85 E17.19419
G1 X165.522 Y204.399 E17.30065
G1 X162.94 Y204.03 E17.40475
G1 X160.287 Y203.728 E17.51132
G1 X157.666 Y203.505 E17.61631
G1 X154.998 Y203.353 E17.72297
G1 X152.327 Y203.276 E17.82962
G1 X149.707 Y203.276 E17.93419
G1 X147.036 Y203.351 E18.04084
G1 X144.367 Y203.501 E18.14753
G1 X141.778 Y203.72 E18.25123
G1 X139.094 Y204.024 E18.35904
G1 X136.5 Y204.392 E18.46361
G1 X133.873 Y204.842 E18.56999
G1 X131.298 Y205.358 E18.6748
G1 X128.691 Y205.957 E18.78157
G1 X126.1 Y206.631 E18.88842
G1 X123.55 Y207.371 E18.9944
G1 X121.803 Y207.92 E19.06748
G1 X121.175 Y208.076 E19.09331
G1 X120.181 Y208.188 E19.13323
G1 X119.67 Y208.2 E19.15364
G1 X100.618 Y208.199 E19.91404
G1 X99.886 Y208.188 E19.94326
G1 X99.077 Y208.118 E19.97567
G1 X98.189 Y207.919 E20.01199
G1 X97.145 Y207.599 E20.05557
G1 X96.438 Y207.371 E20.08522
G1 X93.953 Y206.649 E20.18851
G1 X91.327 Y205.966 E20.2968
G1 X88.778 Y205.378 E20.40121
G1 X86.151 Y204.85 E20.50816
G1 X83.522 Y204.399 E20.61462
G1 X80.94 Y204.03 E20.71872
G1 X78.287 Y203.728 E20.82529
G1 X75.666 Y203.505 E20.93028
G1 X72.998 Y203.353 E21.03693
G1 X70.327 Y203.276 E21.14358
G1 X67.707 Y203.276 E21.24815
G1 X65.036 Y203.351 E21.3548
G1 X62.367 Y203.501 E21.46149
G1 X59.778 Y203.72 E21.5652
G1 X57.094 Y204.024 E21.67301
G1 X54.5 Y204.392 E21.77757
G1 X51.873 Y204.842 E21.88395
G1 X49.298 Y205.358 E21.98877
G1 X46.691 Y205.957 E22.09553
G1 X44.1 Y206.631 E22.20238
G1 X41.55 Y207.371 E22.30836
G1 X39.803 Y207.92 E22.38145
G1 X39.175 Y208.076 E22.40727
G1 X38.181 Y208.188 E22.4472
G1 X37.694 Y208.2 E22.46664
G1 X18.626 Y208.2 E23.22769
G1 X17.898 Y208.19 E23.25674
G1 X17.108 Y208.124 E23.28839
G1 X16.474 Y207.997 E23.31419
G1 X15.632 Y207.715 E23.34963
G1 X14.948 Y207.381 E23.38001
G1 X14.355 Y206.998 E23.40819
G1 X13.764 Y206.508 E23.43883
G1 X13.2 Y205.902 E23.47187
G1 X12.754 Y205.279 E23.50245
G1 X12.39 Y204.608 E23.53292
G1 X12.109 Y203.893 E23.56358
G1 X11.918 Y203.131 E23.59494
G1 X11.811 Y202.155 E23.63412
G1 X11.8 Y201.658 E23.65396
G1 X11.801 Y182.602 E24.41453
G1 X11.814 Y181.863 E24.44403
G1 X11.886 Y181.056 E24.47637
G1 X12.063 Y180.258 E24.50899
G1 X12.401 Y179.145 E24.55542
G1 X12.632 Y178.428 E24.58548
G1 X13.351 Y175.953 E24.68835
G1 X14.034 Y173.327 E24.79664
G1 X14.628 Y170.752 E24.90212
G1 X15.15 Y168.151 E25.008
G1 X15.603 Y165.512 E25.11487
G1 X15.974 Y162.912 E25.21969
G1 X16.272 Y160.287 E25.32513
G1 X16.497 Y157.652 E25.43068
G1 X16.647 Y154.998 E25.53678
G1 X16.724 Y152.327 E25.64343
G1 X16.724 Y149.681 E25.74904
G1 X16.649 Y147.036 E25.85465
G1 X16.499 Y144.359 E25.96166
G1 X16.279 Y141.764 E26.0656
G1 X15.976 Y139.094 E26.17285
G1 X15.606 Y136.485 E26.27803
G1 X15.158 Y133.873 E26.3838
G1 X14.641 Y131.29 E26.48894
G1 X14.037 Y128.665 E26.59644
G1 X13.369 Y126.1 E26.70223
G1 X12.625 Y123.536 E26.80879
G1 X12.081 Y121.807 E26.88113
G1 X11.924 Y121.179 E26.90697
G1 X11.812 Y120.182 E26.94701
G1 X11.8 Y119.67 E26.96745
G1 X11.801 Y100.602 E27.7285
G1 X11.814 Y99.863 E27.758
G1 X11.886 Y99.056 E27.79033
G1 X12.063 Y98.258 E27.82296
G1 X12.401 Y97.145 E27.86938
G1 X12.632 Y96.428 E27.89945
G1 X13.351 Y93.953 E28.00232
G1 X14.034 Y91.327 E28.11061
G1 X14.628 Y88.752 E28.21608
G1 X15.15 Y86.151 E28.32197
G1 X15.603 Y83.512 E28.42883
G1 X15.974 Y80.912 E28.53366
G1 X16.272 Y78.287 E28.6391
G1 X16.497 Y75.652 E28.74465
G1 X16.647 Y72.998 E28.85075
G1 X16.724 Y70.327 E28.9574
G1 X16.724 Y67.681 E29.063
G1 X16.649 Y65.036 E29.16861
G1 X16.499 Y62.359 E29.27563
G1 X16.279 Y59.764 E29.37957
G1 X15.976 Y57.094 E29.48682
G1 X15.606 Y54.485 E29.59199
G1 X15.158 Y51.873 E29.69777
G1 X14.641 Y49.29 E29.8029
G1 X14.037 Y46.665 E29.91041
G1 X13.369 Y44.1 E30.0162
G1 X12.625 Y41.536 E30.12276
G1 X12.081 Y39.807 E30.1951
G1 X11.924 Y39.179 E30.22094
G1 X11.812 Y38.182 E30.26098
G1 X11.8 Y37.694 E30.28046
G1 X11.8 Y18.59 E31.04294
G1 X11.81 Y17.895 E31.07068
G1 X11.876 Y17.103 E31.1024
G1 X12.02 Y16.41 E31.13065
G1 X12.286 Y15.629 E31.16358
G1 X12.623 Y14.941 E31.19416
G1 X13.043 Y14.3 E31.22475
G1 X13.107 Y14.225 E31.22868
G0 F810 X13.538 Y13.717
M204 S2000
G0 F6000 X13.865 Y14.068
M204 S500
G1 F900 X14.382 Y13.587 E31.25687
G1 X14.904 Y13.206 E31.28266
G1 X15.573 Y12.834 E31.31321
G1 X16.23 Y12.573 E31.34143
G1 X16.925 Y12.394 E31.37007
G1 X17.851 Y12.291 E31.40726
G1 X18.319 Y12.28 E31.42594
G1 X37.3 Y12.28 E32.18352
G1 X38.107 Y12.292 E32.21573
G1 X38.819 Y12.351 E32.24424
G1 X39.67 Y12.54 E32.27904
G1 X40.708 Y12.858 E32.32236
G1 X41.418 Y13.087 E32.35214
G1 X43.926 Y13.816 E32.45638
G1 X46.552 Y14.499 E32.56468
G1 X49.127 Y15.093 E32.67015
G1 X51.754 Y15.621 E32.7771
G1 X54.402 Y16.075 E32.88433
G1 X57.006 Y16.447 E32.98931
G1 X59.659 Y16.749 E33.09588
G1 X62.3 Y16.974 E33.20167
G1 X64.988 Y17.127 E33.30913
G1 X67.659 Y17.204 E33.41578
G1 X70.306 Y17.204 E33.52143
G1 X72.977 Y17.129 E33.62808
G1 X75.664 Y16.978 E33.73549
G1 X78.276 Y16.757 E33.84011
G1 X80.96 Y16.453 E33.94792
G1 X83.581 Y16.081 E34.05358
G1 X86.221 Y15.629 E34.16048
G1 X88.796 Y15.113 E34.2653
G1 X91.43 Y14.508 E34.37316
G1 X94.021 Y13.834 E34.48002
G1 X96.584 Y13.09 E34.58654
G1 X98.313 Y12.546 E34.65888
G1 X98.941 Y12.39 E34.68471
G1 X99.831 Y12.292 E34.72044
G1 X100.33 Y12.28 E34.74036
G1 X119.374 Y12.281 E35.50045
G1 X120.107 Y12.292 E35.52971
G1 X120.82 Y12.351 E35.55827
G1 X121.671 Y12.54 E35.59306
G1 X122.709 Y12.858 E35.63639
G1 X123.419 Y13.087 E35.66616
G1 X125.928 Y13.816 E35.77044
G1 X128.552 Y14.499 E35.87866
G1 X131.133 Y15.094 E35.98438
G1 X133.747 Y15.62 E36.0908
G1 X136.402 Y16.075 E36.19831
G1 X139.006 Y16.447 E36.3033
G1 X141.659 Y16.749 E36.40987
G1 X144.3 Y16.974 E36.51566
G1 X146.988 Y17.127 E36.62312
G1 X149.659 Y17.204 E36.72977
G1 X152.306 Y17.204 E36.83541
G1 X154.977 Y17.129 E36.94206
G1 X157.664 Y16.978 E37.04947
G1 X160.276 Y16.757 E37.1541
G1 X162.96 Y16.453 E37.26191
G1 X165.581 Y16.081 E37.36756
G1 X168.221 Y15.629 E37.47447
G1 X170.796 Y15.113 E37.57928
G1 X173.43 Y14.508 E37.68715
G1 X176.021 Y13.834 E37.794
G1 X178.584 Y13.09 E37.90052
G1 X180.313 Y12.546 E37.97286
G1 X180.941 Y12.39 E37.99869
G1 X181.831 Y12.292 E38.03443
G1 X182.318 Y12.28 E38.05387
G1 X201.367 Y12.28 E38.81416
G1 X202.095 Y12.29 E38.84322
G1 X202.798 Y12.347 E38.87137
G1 X203.432 Y12.474 E38.89717
G1 X204.159 Y12.717 E38.92777
G1 X204.794 Y13.024 E38.95592
G1 X205.339 Y13.372 E38.98173
G1 X205.93 Y13.862 E39.01237
G1 X206.411 Y14.379 E39.04055
G1 X206.825 Y14.952 E39.06877
G1 X207.164 Y15.57 E39.0969
G1 X207.426 Y16.227 E39.12513
G1 X207.605 Y16.922 E39.15377
G1 X207.709 Y17.851 E39.19108
G1 X207.72 Y18.33 E39.21021
G1 X207.719 Y37.36 E39.96973
G1 X207.707 Y38.115 E39.99987
G1 X207.648 Y38.829 E40.02847
G1 X207.459 Y39.674 E40.06303
G1 X207.142 Y40.709 E40.10623
G1 X206.911 Y41.426 E40.13629
G1 X206.188 Y43.914 E40.2397
G1 X205.501 Y46.552 E40.3485
G1 X204.904 Y49.14 E40.45451
G1 X204.379 Y51.754 E40.56092
G1 X203.924 Y54.407 E40.66836
G1 X203.551 Y57.02 E40.7737
G1 X203.253 Y59.634 E40.87871
G1 X203.026 Y62.292 E40.98518
G1 X202.873 Y64.988 E41.09296
G1 X202.796 Y67.659 E41.19961
G1 X202.796 Y70.319 E41.30577
G1 X202.871 Y72.978 E41.41194
G1 X203.021 Y75.655 E41.51896
G1 X203.243 Y78.276 E41.62394
G1 X203.547 Y80.96 E41.73175
G1 X203.919 Y83.581 E41.83741
G1 X204.371 Y86.221 E41.94431
G1 X204.885 Y88.789 E42.04884
G1 X205.492 Y91.43 E42.15699
G1 X206.166 Y94.021 E42.26385
G1 X206.908 Y96.575 E42.37
G1 X207.453 Y98.307 E42.44247
G1 X207.609 Y98.935 E42.46829
G1 X207.708 Y99.829 E42.50419
G1 X207.72 Y100.33 E42.52419
G1 X207.719 Y119.36 E43.28372
G1 X207.707 Y120.115 E43.31386
G1 X207.648 Y120.829 E43.34245
G1 X207.459 Y121.674 E43.37701
G1 X207.142 Y122.709 E43.42022
G1 X206.911 Y123.426 E43.45028
G1 X206.188 Y125.914 E43.55369
G1 X205.501 Y128.552 E43.66249
G1 X204.904 Y131.14 E43.7685
G1 X204.379 Y133.754 E43.87491
G1 X203.924 Y136.407 E43.98234
G1 X203.551 Y139.02 E44.08769
G1 X203.253 Y141.634 E44.1927
G1 X203.026 Y144.292 E44.29917
G1 X202.873 Y146.988 E44.40695
G1 X202.796 Y149.659 E44.5136
G1 X202.796 Y152.319 E44.61976
G1 X202.871 Y154.978 E44.72593
G1 X203.021 Y157.655 E44.83294
G1 X203.243 Y160.276 E44.93793
G1 X203.547 Y162.96 E45.04574
G1 X203.919 Y165.581 E45.1514
G1 X204.371 Y168.221 E45.2583
G1 X204.885 Y170.789 E45.36282
G1 X205.492 Y173.43 E45.47098
G1 X206.166 Y176.021 E45.57783
G1 X206.908 Y178.575 E45.68398
G1 X207.453 Y180.307 E45.75645
G1 X207.609 Y180.935 E45.78228
G1 X207.708 Y181.829 E45.81818
G1 X207.72 Y182.318 E45.8377
G1 X207.72 Y201.335 E46.59671
G1 X207.71 Y202.092 E46.62693
G1 X207.654 Y202.795 E46.65508
G1 X207.527 Y203.43 E46.68092
G1 X207.284 Y204.156 E46.71148
G1 X206.977 Y204.793 E46.7397
G1 X206.594 Y205.385 E46.76784
G1 X206.14 Y205.928 E46.79609
G1 X205.669 Y206.371 E46.8219
G1 X205.051 Y206.822 E46.85243
G1 X204.432 Y207.163 E46.88064
G1 X203.776 Y207.425 E46.90883
G1 X203.081 Y207.605 E46.93749
G1 X202.149 Y207.709 E46.97492
G1 X201.67 Y207.72 E46.99404
G1 X182.625 Y207.719 E47.75417
G1 X181.893 Y207.708 E47.78339
G1 X181.181 Y207.649 E47.8119
G1 X180.33 Y207.46 E47.84669
G1 X179.292 Y207.142 E47.89002
G1 X178.582 Y206.913 E47.9198
G1 X176.074 Y206.184 E48.02404
G1 X173.448 Y205.501 E48.13234
G1 X170.873 Y204.907 E48.23781
G1 X168.246 Y204.379 E48.34476
G1 X165.598 Y203.925 E48.45199
G1 X162.994 Y203.553 E48.55697
G1 X160.341 Y203.251 E48.66354
G1 X157.7 Y203.026 E48.76933
G1 X155.012 Y202.873 E48.87679
G1 X152.341 Y202.796 E48.98344
G1 X149.694 Y202.796 E49.08909
G1 X147.023 Y202.871 E49.19574
G1 X144.336 Y203.022 E49.30315
G1 X141.724 Y203.243 E49.40777
G1 X139.04 Y203.547 E49.51558
G1 X136.419 Y203.919 E49.62124
G1 X133.779 Y204.371 E49.72814
G1 X131.204 Y204.887 E49.83296
G1 X128.57 Y205.492 E49.94082
G1 X125.979 Y206.166 E50.04768
G1 X123.416 Y206.91 E50.1542
G1 X121.687 Y207.454 E50.22654
G1 X121.059 Y207.61 E50.25237
G1 X120.169 Y207.708 E50.2881
G1 X119.67 Y207.72 E50.30802
G1 X100.625 Y207.719 E51.06815
G1 X99.893 Y207.708 E51.09737
G1 X99.181 Y207.649 E51.12588
G1 X98.33 Y207.46 E51.16068
G1 X97.292 Y207.142 E51.20401
G1 X96.582 Y206.913 E51.23378
G1 X94.074 Y206.184 E51.33802
G1 X91.448 Y205.501 E51.44632
G1 X88.873 Y204.907 E51.55179
G1 X86.246 Y204.379 E51.65874
G1 X83.598 Y203.925 E51.76597
G1 X80.994 Y203.553 E51.87096
G1 X78.341 Y203.251 E51.97753
G1 X75.7 Y203.026 E52.08332
G1 X73.012 Y202.873 E52.19077
G1 X70.341 Y202.796 E52.29742
G1 X67.694 Y202.796 E52.40307
G1 X65.023 Y202.871 E52.50972
G1 X62.336 Y203.022 E52.61713
G1 X59.724 Y203.243 E52.72175
G1 X57.04 Y203.547 E52.82956
G1 X54.419 Y203.919 E52.93522
G1 X51.779 Y204.371 E53.04212
G1 X49.204 Y204.887 E53.14694
G1 X46.57 Y205.492 E53.25481
G1 X43.979 Y206.166 E53.36166
