;FLAVOR:Marlin
;TIME:895
;Filament used: 0.49152m
;Layer height: 0.2
;MINX:16.8
;MINY:16.8
;MINZ:0.2
;MAXX:213.2
;MAXY:213.2
;MAXZ:0.2
;TARGET_MACHINE.NAME:Creality Ender-3 S1
;Generated with Cura_SteamEngine 5.5.0
M140 S80
M105
M190 S80
M104 S235
M105
M109 S235
M82 ;absolute extrusion mode
START_PRINT
G92 E0
G92 E0
G1 F2400 E-1
;LAYER_COUNT:1
;LAYER:0
M107
M204 S2000
G0 F6000 X18.538 Y18.717 Z0.2
M204 S500
;TYPE:SKIRT
G1 F2400 E0
G1 F900 X19.099 Y18.199 E0.03048
G1 X19.671 Y17.786 E0.05863
G1 X20.34 Y17.414 E0.08919
G1 X21.11 Y17.108 E0.12226
G1 X21.872 Y16.917 E0.15361
G1 X22.84 Y16.811 E0.19248
G1 X23.308 Y16.8 E0.21116
G1 X42.307 Y16.8 E0.96945
G1 X43.114 Y16.812 E1.00166
G1 X43.923 Y16.882 E1.03407
G1 X44.811 Y17.081 E1.07039
G1 X45.855 Y17.401 E1.11398
G1 X46.558 Y17.628 E1.14346
G1 X49.047 Y18.351 E1.24691
G1 X51.673 Y19.034 E1.35521
G1 X54.222 Y19.622 E1.45961
G1 X56.849 Y20.15 E1.56656
G1 X59.478 Y20.601 E1.67302
G1 X62.06 Y20.97 E1.77712
G1 X64.713 Y21.272 E1.88369
G1 X67.334 Y21.495 E1.98868
G1 X70.002 Y21.647 E2.09534
G1 X72.673 Y21.724 E2.20199
G1 X75.293 Y21.724 E2.30656
G1 X77.964 Y21.649 E2.4132
G1 X80.633 Y21.499 E2.5199
G1 X83.222 Y21.28 E2.6236
G1 X85.906 Y20.976 E2.73141
G1 X88.5 Y20.608 E2.83598
G1 X91.127 Y20.158 E2.94235
G1 X93.702 Y19.642 E3.04717
G1 X96.309 Y19.043 E3.15393
G1 X98.9 Y18.369 E3.26079
G1 X101.444 Y17.631 E3.36651
G1 X103.197 Y17.08 E3.43985
G1 X103.825 Y16.924 E3.46568
G1 X104.819 Y16.812 E3.5056
G1 X105.33 Y16.8 E3.526
G1 X124.381 Y16.801 E4.28637
G1 X125.114 Y16.812 E4.31563
G1 X125.924 Y16.882 E4.34808
G1 X126.812 Y17.081 E4.3844
G1 X127.856 Y17.401 E4.42798
G1 X128.559 Y17.628 E4.45746
G1 X131.049 Y18.351 E4.56095
G1 X133.673 Y19.034 E4.66917
G1 X136.228 Y19.623 E4.77382
G1 X138.842 Y20.149 E4.88024
G1 X141.478 Y20.601 E4.98699
G1 X144.06 Y20.97 E5.09109
G1 X146.713 Y21.272 E5.19766
G1 X149.334 Y21.495 E5.30264
G1 X152.002 Y21.647 E5.4093
G1 X154.673 Y21.724 E5.51595
G1 X157.293 Y21.724 E5.62052
G1 X159.964 Y21.649 E5.72717
G1 X162.633 Y21.499 E5.83386
G1 X165.222 Y21.28 E5.93756
G1 X167.906 Y20.976 E6.04537
G1 X170.5 Y20.608 E6.14994
G1 X173.127 Y20.158 E6.25632
G1 X175.702 Y19.642 E6.36114
G1 X178.309 Y19.043 E6.4679
G1 X180.9 Y18.369 E6.57475
G1 X183.444 Y17.631 E6.68048
G1 X185.197 Y17.08 E6.75382
G1 X185.825 Y16.924 E6.77964
G1 X186.819 Y16.812 E6.81957
G1 X187.306 Y16.8 E6.83901
G1 X206.374 Y16.8 E7.60005
G1 X207.102 Y16.81 E7.62911
G1 X207.892 Y16.876 E7.66075
G1 X208.526 Y17.003 E7.68656
G1 X209.368 Y17.285 E7.722
G1 X210.052 Y17.619 E7.75238
G1 X210.645 Y18.002 E7.78056
G1 X211.236 Y18.492 E7.8112
G1 X211.8 Y19.098 E7.84424
G1 X212.246 Y19.721 E7.87482
G1 X212.61 Y20.392 E7.90529
G1 X212.891 Y21.107 E7.93595
G1 X213.082 Y21.869 E7.9673
G1 X213.189 Y22.84 E8.00629
G1 X213.2 Y23.33 E8.02585
G1 X213.199 Y42.368 E8.7857
G1 X213.187 Y43.123 E8.81584
G1 X213.116 Y43.934 E8.84833
G1 X212.918 Y44.815 E8.88437
G1 X212.599 Y45.856 E8.92783
G1 X212.368 Y46.573 E8.95789
G1 X211.653 Y49.035 E9.06022
G1 X210.966 Y51.673 E9.16902
G1 X210.372 Y54.248 E9.27449
G1 X209.85 Y56.849 E9.38037
G1 X209.397 Y59.488 E9.48724
G1 X209.026 Y62.088 E9.59206
G1 X208.73 Y64.688 E9.69651
G1 X208.504 Y67.333 E9.80246
G1 X208.353 Y70.002 E9.90915
G1 X208.276 Y72.673 E10.0158
G1 X208.276 Y75.319 E10.12141
G1 X208.351 Y77.964 E10.22702
G1 X208.499 Y80.614 E10.33295
G1 X208.72 Y83.222 E10.43742
G1 X209.024 Y85.906 E10.54523
G1 X209.392 Y88.5 E10.64979
G1 X209.842 Y91.127 E10.75617
G1 X210.353 Y93.681 E10.86013
G1 X210.957 Y96.309 E10.96775
G1 X211.631 Y98.9 E11.0746
G1 X212.366 Y101.431 E11.1798
G1 X212.919 Y103.191 E11.25343
G1 X213.075 Y103.819 E11.27925
G1 X213.188 Y104.818 E11.31938
G1 X213.2 Y105.33 E11.33982
G1 X213.199 Y124.368 E12.09967
G1 X213.187 Y125.123 E12.12981
G1 X213.116 Y125.934 E12.1623
G1 X212.918 Y126.815 E12.19834
G1 X212.599 Y127.856 E12.24179
G1 X212.368 Y128.573 E12.27186
G1 X211.653 Y131.035 E12.37418
G1 X210.966 Y133.673 E12.48298
G1 X210.372 Y136.248 E12.58846
G1 X209.85 Y138.849 E12.69434
G1 X209.397 Y141.488 E12.80121
G1 X209.026 Y144.088 E12.90603
G1 X208.73 Y146.688 E13.01047
G1 X208.504 Y149.333 E13.11642
G1 X208.353 Y152.002 E13.22312
G1 X208.276 Y154.673 E13.32977
G1 X208.276 Y157.319 E13.43538
G1 X208.351 Y159.964 E13.54099
G1 X208.499 Y162.614 E13.64692
G1 X208.72 Y165.222 E13.75138
G1 X209.024 Y167.906 E13.85919
G1 X209.392 Y170.5 E13.96376
G1 X209.842 Y173.127 E14.07014
G1 X210.353 Y175.681 E14.17409
G1 X210.957 Y178.309 E14.28172
G1 X211.631 Y180.9 E14.38857
G1 X212.366 Y183.431 E14.49376
G1 X212.919 Y185.191 E14.56739
G1 X213.075 Y185.819 E14.59322
G1 X213.188 Y186.817 E14.63331
G1 X213.2 Y187.306 E14.65283
G1 X213.2 Y206.341 E15.41256
G1 X213.19 Y207.098 E15.44277
G1 X213.125 Y207.889 E15.47445
G1 X212.982 Y208.582 E15.50269
G1 X212.716 Y209.364 E15.53566
G1 X212.38 Y210.054 E15.56629
G1 X211.962 Y210.693 E15.59677
G1 X211.469 Y211.278 E15.6273
G1 X210.952 Y211.759 E15.65548
G1 X210.283 Y212.242 E15.68842
G1 X209.61 Y212.609 E15.71901
G1 X208.896 Y212.89 E15.74964
G1 X208.134 Y213.082 E15.781
G1 X207.16 Y213.189 E15.82011
G1 X206.67 Y213.2 E15.83967
G1 X187.618 Y213.199 E16.60008
G1 X186.886 Y213.188 E16.6293
G1 X186.077 Y213.118 E16.66171
G1 X185.189 Y212.919 E16.69803
G1 X184.145 Y212.599 E16.74161
G1 X183.438 Y212.371 E16.77126
G1 X180.953 Y211.649 E16.87454
G1 X178.327 Y210.966 E16.98284
G1 X175.778 Y210.378 E17.08725
G1 X173.151 Y209.85 E17.19419
G1 X170.522 Y209.399 E17.30065
G1 X167.94 Y209.03 E17.40475
G1 X165.287 Y208.728 E17.51132
G1 X162.666 Y208.505 E17.61631
G1 X159.998 Y208.353 E17.72297
G1 X157.327 Y208.276 E17.82962
G1 X154.707 Y208.276 E17.93419
G1 X152.036 Y208.351 E18.04084
G1 X149.367 Y208.501 E18.14753
G1 X146.778 Y208.72 E18.25123
G1 X144.094 Y209.024 E18.35904
G1 X141.5 Y209.392 E18.46361
G1 X138.873 Y209.842 E18.56999
G1 X136.298 Y210.358 E18.6748
G1 X133.691 Y210.957 E18.78157
G1 X131.1 Y211.631 E18.88842
G1 X128.55 Y212.371 E18.9944
G1 X126.803 Y212.92 E19.06748
G1 X126.175 Y213.076 E19.09331
G1 X125.181 Y213.188 E19.13323
G1 X124.67 Y213.2 E19.15364
G1 X105.618 Y213.199 E19.91404
G1 X104.886 Y213.188 E19.94326
G1 X104.077 Y213.118 E19.97567
G1 X103.189 Y212.919 E20.01199
G1 X102.145 Y212.599 E20.05557
G1 X101.438 Y212.371 E20.08522
G1 X98.953 Y211.649 E20.18851
G1 X96.327 Y210.966 E20.2968
G1 X93.778 Y210.378 E20.40121
G1 X91.151 Y209.85 E20.50816
G1 X88.522 Y209.399 E20.61462
G1 X85.94 Y209.03 E20.71872
G1 X83.287 Y208.728 E20.82529
G1 X80.666 Y208.505 E20.93028
G1 X77.998 Y208.353 E21.03693
G1 X75.327 Y208.276 E21.14358
G1 X72.707 Y208.276 E21.24815
G1 X70.036 Y208.351 E21.3548
G1 X67.367 Y208.501 E21.46149
G1 X64.778 Y208.72 E21.5652
G1 X62.094 Y209.024 E21.67301
G1 X59.5 Y209.392 E21.77757
G1 X56.873 Y209.842 E21.88395
G1 X54.298 Y210.358 E21.98877
G1 X51.691 Y210.957 E22.09553
G1 X49.1 Y211.631 E22.20238
G1 X46.55 Y212.371 E22.30836
G1 X44.803 Y212.92 E22.38145
G1 X44.175 Y213.076 E22.40727
G1 X43.181 Y213.188 E22.4472
G1 X42.694 Y213.2 E22.46664
G1 X23.626 Y213.2 E23.22769
G1 X22.898 Y213.19 E23.25674
G1 X22.108 Y213.124 E23.28839
G1 X21.474 Y212.997 E23.31419
G1 X20.632 Y212.715 E23.34963
G1 X19.948 Y212.381 E23.38001
G1 X19.355 Y211.998 E23.40819
G1 X18.764 Y211.508 E23.43883
G1 X18.2 Y210.902 E23.47187
G1 X17.754 Y210.279 E23.50245
G1 X17.39 Y209.608 E23.53292
G1 X17.109 Y208.893 E23.56358
G1 X16.918 Y208.131 E23.59494
G1 X16.811 Y207.155 E23.63412
G1 X16.8 Y206.658 E23.65396
G1 X16.801 Y187.602 E24.41453
G1 X16.814 Y186.863 E24.44403
G1 X16.886 Y186.056 E24.47637
G1 X17.063 Y185.258 E24.50899
G1 X17.401 Y184.145 E24.55542
G1 X17.632 Y183.428 E24.58548
G1 X18.351 Y180.953 E24.68835
G1 X19.034 Y178.327 E24.79664
G1 X19.628 Y175.752 E24.90212
G1 X20.15 Y173.151 E25.008
G1 X20.603 Y170.512 E25.11487
G1 X20.974 Y167.912 E25.21969
G1 X21.272 Y165.287 E25.32513
G1 X21.497 Y162.652 E25.43068
G1 X21.647 Y159.998 E25.53678
G1 X21.724 Y157.327 E25.64343
G1 X21.724 Y154.681 E25.74904
G1 X21.649 Y152.036 E25.85465
G1 X21.499 Y149.359 E25.96166
G1 X21.279 Y146.764 E26.0656
G1 X20.976 Y144.094 E26.17285
G1 X20.606 Y141.485 E26.27803
G1 X20.158 Y138.873 E26.3838
G1 X19.641 Y136.29 E26.48894
G1 X19.037 Y133.665 E26.59644
G1 X18.369 Y131.1 E26.70223
G1 X17.625 Y128.536 E26.80879
G1 X17.081 Y126.807 E26.88113
G1 X16.924 Y126.179 E26.90697
G1 X16.812 Y125.182 E26.94701
G1 X16.8 Y124.67 E26.96745
G1 X16.801 Y105.602 E27.7285
G1 X16.814 Y104.863 E27.758
G1 X16.886 Y104.056 E27.79033
G1 X17.063 Y103.258 E27.82296
G1 X17.401 Y102.145 E27.86938
G1 X17.632 Y101.428 E27.89945
G1 X18.351 Y98.953 E28.00232
G1 X19.034 Y96.327 E28.11061
G1 X19.628 Y93.752 E28.21608
G1 X20.15 Y91.151 E28.32197
G1 X20.603 Y88.512 E28.42883
G1 X20.974 Y85.912 E28.53366
G1 X21.272 Y83.287 E28.6391
G1 X21.497 Y80.652 E28.74465
G1 X21.647 Y77.998 E28.85075
G1 X21.724 Y75.327 E28.9574
G1 X21.724 Y72.681 E29.063
G1 X21.649 Y70.036 E29.16861
G1 X21.499 Y67.359 E29.27563
G1 X21.279 Y64.764 E29.37957
G1 X20.976 Y62.094 E29.48682
G1 X20.606 Y59.485 E29.59199
G1 X20.158 Y56.873 E29.69777
G1 X19.641 Y54.29 E29.8029
G1 X19.037 Y51.665 E29.91041
G1 X18.369 Y49.1 E30.0162
G1 X17.625 Y46.536 E30.12276
G1 X17.081 Y44.807 E30.1951
G1 X16.924 Y44.179 E30.22094
G1 X16.812 Y43.182 E30.26098
G1 X16.8 Y42.694 E30.28046
G1 X16.8 Y23.59 E31.04294
G1 X16.81 Y22.895 E31.07068
G1 X16.876 Y22.103 E31.1024
G1 X17.02 Y21.41 E31.13065
G1 X17.286 Y20.629 E31.16358
G1 X17.623 Y19.941 E31.19416
G1 X18.043 Y19.3 E31.22475
G1 X18.107 Y19.225 E31.22868
G0 F810 X18.538 Y18.717
M204 S2000
G0 F6000 X18.865 Y19.068
M204 S500
G1 F900 X19.382 Y18.587 E31.25687
G1 X19.904 Y18.206 E31.28266
G1 X20.573 Y17.834 E31.31321
G1 X21.23 Y17.573 E31.34143
G1 X21.925 Y17.394 E31.37007
G1 X22.851 Y17.291 E31.40726
G1 X23.319 Y17.28 E31.42594
G1 X42.3 Y17.28 E32.18352
G1 X43.107 Y17.292 E32.21573
G1 X43.819 Y17.351 E32.24424
G1 X44.67 Y17.54 E32.27904
G1 X45.708 Y17.858 E32.32236
G1 X46.418 Y18.087 E32.35214
G1 X48.926 Y18.816 E32.45638
G1 X51.552 Y19.499 E32.56468
G1 X54.127 Y20.093 E32.67015
G1 X56.754 Y20.621 E32.7771
G1 X59.402 Y21.075 E32.88433
G1 X62.006 Y21.447 E32.98931
G1 X64.659 Y21.749 E33.09588
G1 X67.3 Y21.974 E33.20167
G1 X69.988 Y22.127 E33.30913
G1 X72.659 Y22.204 E33.41578
G1 X75.306 Y22.204 E33.52143
G1 X77.977 Y22.129 E33.62808
G1 X80.664 Y21.978 E33.73549
G1 X83.276 Y21.757 E33.84011
G1 X85.96 Y21.453 E33.94792
G1 X88.581 Y21.081 E34.05358
G1 X91.221 Y20.629 E34.16048
G1 X93.796 Y20.113 E34.2653
G1 X96.43 Y19.508 E34.37316
G1 X99.021 Y18.834 E34.48002
G1 X101.584 Y18.09 E34.58654
G1 X103.313 Y17.546 E34.65888
G1 X103.941 Y17.39 E34.68471
G1 X104.831 Y17.292 E34.72044
G1 X105.33 Y17.28 E34.74036
G1 X124.374 Y17.281 E35.50045
G1 X125.107 Y17.292 E35.52971
G1 X125.82 Y17.351 E35.55827
G1 X126.671 Y17.54 E35.59306
G1 X127.709 Y17.858 E35.63639
G1 X128.419 Y18.087 E35.66616
G1 X130.928 Y18.816 E35.77044
G1 X133.552 Y19.499 E35.87866
G1 X136.133 Y20.094 E35.98438
G1 X138.747 Y20.62 E36.0908
G1 X141.402 Y21.075 E36.19831
G1 X144.006 Y21.447 E36.3033
G1 X146.659 Y21.749 E36.40987
G1 X149.3 Y21.974 E36.51566
G1 X151.988 Y22.127 E36.62312
G1 X154.659 Y22.204 E36.72977
G1 X157.306 Y22.204 E36.83541
G1 X159.977 Y22.129 E36.94206
G1 X162.664 Y21.978 E37.04947
G1 X165.276 Y21.757 E37.1541
G1 X167.96 Y21.453 E37.26191
G1 X170.581 Y21.081 E37.36756
G1 X173.221 Y20.629 E37.47447
G1 X175.796 Y20.113 E37.57928
G1 X178.43 Y19.508 E37.68715
G1 X181.021 Y18.834 E37.794
G1 X183.584 Y18.09 E37.90052
G1 X185.313 Y17.546 E37.97286
G1 X185.941 Y17.39 E37.99869
G1 X186.831 Y17.292 E38.03443
G1 X187.318 Y17.28 E38.05387
G1 X206.367 Y17.28 E38.81416
G1 X207.095 Y17.29 E38.84322
G1 X207.798 Y17.347 E38.87137
G1 X208.432 Y17.474 E38.89717
G1 X209.159 Y17.717 E38.92777
G1 X209.794 Y18.024 E38.95592
G1 X210.339 Y18.372 E38.98173
G1 X210.93 Y18.862 E39.01237
G1 X211.411 Y19.379 E39.04055
G1 X211.825 Y19.952 E39.06877
G1 X212.164 Y20.57 E39.0969
G1 X212.426 Y21.227 E39.12513
G1 X212.605 Y21.922 E39.15377
G1 X212.709 Y22.851 E39.19108
G1 X212.72 Y23.33 E39.21021
G1 X212.719 Y42.36 E39.96973
G1 X212.707 Y43.115 E39.99987
G1 X212.648 Y43.829 E40.02847
G1 X212.459 Y44.674 E40.06303
G1 X212.142 Y45.709 E40.10623
G1 X211.911 Y46.426 E40.13629
G1 X211.188 Y48.914 E40.2397
G1 X210.501 Y51.552 E40.3485
G1 X209.904 Y54.14 E40.45451
G1 X209.379 Y56.754 E40.56092
G1 X208.924 Y59.407 E40.66836
G1 X208.551 Y62.02 E40.7737
G1 X208.253 Y64.634 E40.87871
G1 X208.026 Y67.292 E40.98518
G1 X207.873 Y69.988 E41.09296
G1 X207.796 Y72.659 E41.19961
G1 X207.796 Y75.319 E41.30577
G1 X207.871 Y77.978 E41.41194
G1 X208.021 Y80.655 E41.51896
G1 X208.243 Y83.276 E41.62394
G1 X208.547 Y85.96 E41.73175
G1 X208.919 Y88.581 E41.83741
G1 X209.371 Y91.221 E41.94431
G1 X209.885 Y93.789 E42.04884
G1 X210.492 Y96.43 E42.15699
G1 X211.166 Y99.021 E42.26385
G1 X211.908 Y101.575 E42.37
G1 X212.453 Y103.307 E42.44247
G1 X212.609 Y103.935 E42.46829
G1 X212.708 Y104.829 E42.50419
G1 X212.72 Y105.33 E42.52419
G1 X212.719 Y124.36 E43.28372
G1 X212.707 Y125.115 E43.31386
G1 X212.648 Y125.829 E43.34245
G1 X212.459 Y126.674 E43.37701
G1 X212.142 Y127.709 E43.42022
G1 X211.911 Y128.426 E43.45028
G1 X211.188 Y130.914 E43.55369
G1 X210.501 Y133.552 E43.66249
G1 X209.904 Y136.14 E43.7685
G1 X209.379 Y138.754 E43.87491
G1 X208.924 Y141.407 E43.98234
G1 X208.551 Y144.02 E44.08769
G1 X208.253 Y146.634 E44.1927
G1 X208.026 Y149.292 E44.29917
G1 X207.873 Y151.988 E44.40695
G1 X207.796 Y154.659 E44.5136
G1 X207.796 Y157.319 E44.61976
G1 X207.871 Y159.978 E44.72593
G1 X208.021 Y162.655 E44.83294
G1 X208.243 Y165.276 E44.93793
G1 X208.547 Y167.96 E45.04574
G1 X208.919 Y170.581 E45.1514
G1 X209.371 Y173.221 E45.2583
G1 X209.885 Y175.789 E45.36282
G1 X210.492 Y178.43 E45.47098
G1 X211.166 Y181.021 E45.57783
G1 X211.908 Y183.575 E45.68398
G1 X212.453 Y185.307 E45.75645
G1 X212.609 Y185.935 E45.78228
G1 X212.708 Y186.829 E45.81818
G1 X212.72 Y187.318 E45.8377
G1 X212.72 Y206.335 E46.59671
G1 X212.71 Y207.092 E46.62693
G1 X212.654 Y207.795 E46.65508
G1 X212.527 Y208.43 E46.68092
G1 X212.284 Y209.156 E46.71148
G1 X211.977 Y209.793 E46.7397
G1 X211.594 Y210.385 E46.76784
G1 X211.14 Y210.928 E46.79609
G1 X210.669 Y211.371 E46.8219
G1 X210.051 Y211.822 E46.85243
G1 X209.432 Y212.163 E46.88064
G1 X208.776 Y212.425 E46.90883
G1 X208.081 Y212.605 E46.93749
G1 X207.149 Y212.709 E46.97492
G1 X206.67 Y212.72 E46.99404
G1 X187.625 Y212.719 E47.75417
G1 X186.893 Y212.708 E47.78339
G1 X186.181 Y212.649 E47.8119
G1 X185.33 Y212.46 E47.84669
G1 X184.292 Y212.142 E47.89002
G1 X183.582 Y211.913 E47.9198
G1 X181.074 Y211.184 E48.02404
G1 X178.448 Y210.501 E48.13234
G1 X175.873 Y209.907 E48.23781
G1 X173.246 Y209.379 E48.34476
G1 X170.598 Y208.925 E48.45199
G1 X167.994 Y208.553 E48.55697
G1 X165.341 Y208.251 E48.66354
G1 X162.7 Y208.026 E48.76933
G1 X160.012 Y207.873 E48.87679
G1 X157.341 Y207.796 E48.98344
G1 X154.694 Y207.796 E49.08909
G1 X152.023 Y207.871 E49.19574
G1 X149.336 Y208.022 E49.30315
G1 X146.724 Y208.243 E49.40777
G1 X144.04 Y208.547 E49.51558
G1 X141.419 Y208.919 E49.62124
G1 X138.779 Y209.371 E49.72814
G1 X136.204 Y209.887 E49.83296
G1 X133.57 Y210.492 E49.94082
G1 X130.979 Y211.166 E50.04768
G1 X128.416 Y211.91 E50.1542
G1 X126.687 Y212.454 E50.22654
G1 X126.059 Y212.61 E50.25237
G1 X125.169 Y212.708 E50.2881
G1 X124.67 Y212.72 E50.30802
G1 X105.625 Y212.719 E51.06815
G1 X104.893 Y212.708 E51.09737
G1 X104.181 Y212.649 E51.12588
G1 X103.33 Y212.46 E51.16068
G1 X102.292 Y212.142 E51.20401
G1 X101.582 Y211.913 E51.23378
G1 X99.074 Y211.184 E51.33802
G1 X96.448 Y210.501 E51.44632
G1 X93.873 Y209.907 E51.55179
G1 X91.246 Y209.379 E51.65874
G1 X88.598 Y208.925 E51.76597
G1 X85.994 Y208.553 E51.87096
G1 X83.341 Y208.251 E51.97753
G1 X80.7 Y208.026 E52.08332
G1 X78.012 Y207.873 E52.19077
G1 X75.341 Y207.796 E52.29742
G1 X72.694 Y207.796 E52.40307
G1 X70.023 Y207.871 E52.50972
G1 X67.336 Y208.022 E52.61713
G1 X64.724 Y208.243 E52.72175
G1 X62.04 Y208.547 E52.82956
G1 X59.419 Y208.919 E52.93522
G1 X56.779 Y209.371 E53.04212
G1 X54.204 Y209.887 E53.14694
G1 X51.57 Y210.492 E53.25481
